(PART2)
(T1  D=0.1575 CR=0. - ZMIN=-0.13 - FLAT END MILL)
G90 G94 G91.1 G40 G49 G17
G20
G28 G91 Z0.
G90

(DRILL1)
M5
T1 M6
S20000 M3
G54
M8
G0 X2. Y-6.7
G43 Z0.6 H1
Z0.2
G98 G81 X2. Y-6.7 Z-0.13 R0.11 F7.
X6.5
Y-2.2
X2.
G80
Z0.6

(BORE1)
G0 X8.987 Y-0.5106
Z0.6
Z0.08
G1 Z0.0157 F30.
G18 G2 X9.0028 Z0. I0.0157 K0.
G1 X9.0106
G17 G3 X9.0213 Y-0.5 I0. J0.0106
X8.9787 Z-0.0197 I-0.0213 J0.
X9.0213 Z-0.0394 I0.0213 J0.
X8.9787 Z-0.0591 I-0.0213 J0.
X9.0213 Z-0.0787 I0.0213 J0.
X8.9787 Z-0.0984 I-0.0213 J0.
X9.0213 Z-0.1181 I0.0213 J0.
X8.9932 Y-0.4799 Z-0.13 I-0.0213 J0.
X9.0068 Y-0.5201 I0.0068 J-0.0201
X8.9932 Y-0.4799 I-0.0068 J0.0201
X8.9865 Y-0.4933 I0.0034 J-0.0101
G1 X8.989 Y-0.5008
X8.99 Y-0.5037 Z-0.1297
X8.991 Y-0.5065 Z-0.1288
X8.9919 Y-0.5091 Z-0.1273
X8.9926 Y-0.5113 Z-0.1254
X8.9933 Y-0.5132 Z-0.123
X8.9937 Y-0.5146 Z-0.1203
X8.994 Y-0.5154 Z-0.1173
X8.9941 Y-0.5157 Z-0.1143
G0 Z0.2
X9.5127 Y-0.489
Z0.08
G1 Z0.0157 F30.
X9.5124 Z0.0127
X9.5115 Z0.0097
X9.51 Y-0.4891 Z0.007
X9.508 Z0.0046
X9.5057 Y-0.4892 Z0.0027
X9.5029 Y-0.4893 Z0.0012
X9.5 Y-0.4894 Z0.0003
X9.4969 Y-0.4895 Z0.
X9.489 Y-0.4897
G3 X9.4788 Y-0.5007 I0.0003 J-0.0106
X9.5213 Y-0.4993 Z-0.0197 I0.0212 J0.0007
X9.4788 Y-0.5007 Z-0.0394 I-0.0212 J-0.0007
X9.5212 Y-0.4993 Z-0.0591 I0.0212 J0.0007
X9.4788 Y-0.5007 Z-0.0787 I-0.0212 J-0.0007
X9.5212 Y-0.4993 Z-0.0984 I0.0212 J0.0007
X9.4788 Y-0.5007 Z-0.1181 I-0.0212 J-0.0007
X9.5074 Y-0.5199 Z-0.13 I0.0212 J0.0007
X9.4926 Y-0.4801 I-0.0074 J0.0199
X9.5074 Y-0.5199 I0.0074 J-0.0199
X9.5137 Y-0.5062 I-0.0037 J0.01
G1 X9.5109 Y-0.4989
X9.5098 Y-0.496 Z-0.1297
X9.5088 Y-0.4932 Z-0.1288
X9.5079 Y-0.4907 Z-0.1273
X9.507 Y-0.4884 Z-0.1254
X9.5063 Y-0.4866 Z-0.123
X9.5058 Y-0.4852 Z-0.1203
X9.5055 Y-0.4844 Z-0.1173
X9.5054 Y-0.4841 Z-0.1143
G0 Z0.2
X10.0133 Y-0.4898
Z0.08
G1 Z0.0157 F30.
X10.013 Z0.0127
X10.0121 Z0.0097
X10.0107 Y-0.4897 Z0.007
X10.0087 Y-0.4896 Z0.0046
X10.0063 Z0.0027
X10.0036 Y-0.4895 Z0.0012
X10.0007 Y-0.4894 Z0.0003
X9.9976 Y-0.4893 Z0.
X9.9897 Y-0.489
G3 X9.9788 Y-0.4993 I-0.0003 J-0.0106
X10.0212 Y-0.5007 Z-0.0197 I0.0212 J-0.0007
X9.9788 Y-0.4993 Z-0.0394 I-0.0212 J0.0007
X10.0212 Y-0.5007 Z-0.0591 I0.0212 J-0.0007
X9.9788 Y-0.4993 Z-0.0787 I-0.0212 J0.0007
X10.0212 Y-0.5007 Z-0.0984 I0.0212 J-0.0007
X9.9788 Y-0.4993 Z-0.1181 I-0.0212 J0.0007
X10.0062 Y-0.5203 Z-0.13 I0.0212 J-0.0007
X9.9938 Y-0.4797 I-0.0062 J0.0203
X10.0062 Y-0.5203 I0.0062 J-0.0203
X10.0133 Y-0.5071 I-0.0031 J0.0102
G1 X10.011 Y-0.4996
X10.0101 Y-0.4966 Z-0.1297
X10.0092 Y-0.4938 Z-0.1288
X10.0084 Y-0.4912 Z-0.1273
X10.0077 Y-0.4889 Z-0.1254
X10.0072 Y-0.487 Z-0.123
X10.0067 Y-0.4856 Z-0.1203
X10.0065 Y-0.4848 Z-0.1173
X10.0064 Y-0.4845 Z-0.1143
G0 Z0.2
X10.0105 Y-1.0131
Z0.08
G1 Z0.0157 F30.
Y-1.0128 Z0.0127
Y-1.0119 Z0.0097
Y-1.0105 Z0.007
Y-1.0085 Z0.0046
X10.0106 Y-1.0061 Z0.0027
Y-1.0034 Z0.0012
Y-1.0004 Z0.0003
X10.0107 Y-0.9974 Z0.
X10.0108 Y-0.9895
G3 X10.0003 Y-0.9787 I-0.0106 J0.0001
X9.9997 Y-1.0213 Z-0.0197 I-0.0003 J-0.0213
X10.0003 Y-0.9787 Z-0.0394 I0.0003 J0.0213
X9.9997 Y-1.0213 Z-0.0591 I-0.0003 J-0.0213
X10.0003 Y-0.9787 Z-0.0787 I0.0003 J0.0213
X9.9997 Y-1.0213 Z-0.0984 I-0.0003 J-0.0213
X10.0003 Y-0.9787 Z-0.1181 I0.0003 J0.0213
X9.9798 Y-1.0066 Z-0.13 I-0.0003 J-0.0213
X10.0202 Y-0.9934 I0.0202 J0.0066
X9.9798 Y-1.0066 I-0.0202 J-0.0066
X9.9932 Y-1.0134 I0.0101 J0.0033
G1 X10.0007 Y-1.011
X10.0036 Y-1.01 Z-0.1297
X10.0064 Y-1.0091 Z-0.1288
X10.009 Y-1.0083 Z-0.1273
X10.0113 Y-1.0075 Z-0.1254
X10.0131 Y-1.0069 Z-0.123
X10.0145 Y-1.0065 Z-0.1203
X10.0154 Y-1.0062 Z-0.1173
X10.0156 Y-1.0061 Z-0.1143
G0 Z0.2
X9.4869 Y-1.0105
Z0.08
G1 Z0.0157 F30.
X9.4872 Z0.0127
X9.4881 Z0.0097
X9.4895 Z0.007
X9.4915 Z0.0046
X9.4939 Y-1.0106 Z0.0027
X9.4966 Z0.0012
X9.4996 Z0.0003
X9.5026 Y-1.0107 Z0.
X9.5105 Y-1.0108
G3 X9.5213 Y-1.0003 I0.0001 J0.0106
X9.4787 Y-0.9997 Z-0.0197 I-0.0213 J0.0003
X9.5213 Y-1.0003 Z-0.0394 I0.0213 J-0.0003
X9.4787 Y-0.9997 Z-0.0591 I-0.0213 J0.0003
X9.5213 Y-1.0003 Z-0.0787 I0.0213 J-0.0003
X9.4787 Y-0.9997 Z-0.0984 I-0.0213 J0.0003
X9.5213 Y-1.0003 Z-0.1181 I0.0213 J-0.0003
X9.4934 Y-0.9798 Z-0.13 I-0.0213 J0.0003
X9.5066 Y-1.0202 I0.0066 J-0.0202
X9.4934 Y-0.9798 I-0.0066 J0.0202
X9.4866 Y-0.9932 I0.0033 J-0.0101
G1 X9.489 Y-1.0007
X9.49 Y-1.0036 Z-0.1297
X9.4909 Y-1.0064 Z-0.1288
X9.4917 Y-1.009 Z-0.1273
X9.4925 Y-1.0113 Z-0.1254
X9.4931 Y-1.0131 Z-0.123
X9.4935 Y-1.0145 Z-0.1203
X9.4938 Y-1.0154 Z-0.1173
X9.4939 Y-1.0156 Z-0.1143
G0 Z0.2
X8.9867 Y-1.0102
Z0.08
G1 Z0.0157 F30.
X8.987 Z0.0127
X8.9879 Y-1.0103 Z0.0097
X8.9893 Z0.007
X8.9913 Y-1.0104 Z0.0046
X8.9937 Z0.0027
X8.9964 Y-1.0105 Z0.0012
X8.9993 Y-1.0106 Z0.0003
X9.0024 Y-1.0107 Z0.
X9.0103 Y-1.011
G3 X9.0212 Y-1.0007 I0.0003 J0.0106
X8.9788 Y-0.9993 Z-0.0197 I-0.0212 J0.0007
X9.0212 Y-1.0007 Z-0.0394 I0.0212 J-0.0007
X8.9788 Y-0.9993 Z-0.0591 I-0.0212 J0.0007
X9.0212 Y-1.0007 Z-0.0787 I0.0212 J-0.0007
X8.9788 Y-0.9993 Z-0.0984 I-0.0212 J0.0007
X9.0212 Y-1.0007 Z-0.1181 I0.0212 J-0.0007
X8.9938 Y-0.9797 Z-0.13 I-0.0212 J0.0007
X9.0062 Y-1.0203 I0.0062 J-0.0203
X8.9938 Y-0.9797 I-0.0062 J0.0203
X8.9867 Y-0.9929 I0.0031 J-0.0102
G1 X8.989 Y-1.0005
X8.9899 Y-1.0034 Z-0.1297
X8.9908 Y-1.0062 Z-0.1288
X8.9916 Y-1.0088 Z-0.1273
X8.9923 Y-1.0111 Z-0.1254
X8.9928 Y-1.013 Z-0.123
X8.9933 Y-1.0144 Z-0.1203
X8.9935 Y-1.0152 Z-0.1173
X8.9936 Y-1.0155 Z-0.1143
G0 Z0.2
X9.0108 Y-1.5129
Z0.08
G1 Z0.0157 F30.
Y-1.5125 Z0.0127
Y-1.5117 Z0.0097
Y-1.5102 Z0.007
X9.0107 Y-1.5082 Z0.0046
Y-1.5059 Z0.0027
Y-1.5031 Z0.0012
X9.0106 Y-1.5002 Z0.0003
Y-1.4971 Z0.
X9.0105 Y-1.4892
G3 X8.9997 Y-1.4787 I-0.0106 J-0.0001
X9.0003 Y-1.5213 Z-0.0197 I0.0003 J-0.0213
X8.9997 Y-1.4787 Z-0.0394 I-0.0003 J0.0213
X9.0003 Y-1.5213 Z-0.0591 I0.0003 J-0.0213
X8.9997 Y-1.4787 Z-0.0787 I-0.0003 J0.0213
X9.0003 Y-1.5213 Z-0.0984 I0.0003 J-0.0213
X8.9997 Y-1.4787 Z-0.1181 I-0.0003 J0.0213
X8.98 Y-1.5071 Z-0.13 I0.0003 J-0.0213
X9.02 Y-1.4929 I0.02 J0.0071
X8.98 Y-1.5071 I-0.02 J-0.0071
X8.9935 Y-1.5136 I0.01 J0.0035
G1 X9.0009 Y-1.5109
X9.0038 Y-1.5099 Z-0.1297
X9.0066 Y-1.5089 Z-0.1288
X9.0092 Y-1.508 Z-0.1273
X9.0114 Y-1.5072 Z-0.1254
X9.0133 Y-1.5066 Z-0.123
X9.0147 Y-1.5061 Z-0.1203
X9.0155 Y-1.5058 Z-0.1173
X9.0158 Y-1.5057 Z-0.1143
G0 Z0.2
X9.5129 Y-1.4892
Z0.08
G1 Z0.0157 F30.
X9.5126 Z0.0127
X9.5117 Z0.0097
X9.5102 Z0.007
X9.5083 Y-1.4893 Z0.0046
X9.5059 Z0.0027
X9.5031 Z0.0012
X9.5002 Y-1.4894 Z0.0003
X9.4971 Z0.
X9.4892 Y-1.4895
G3 X9.4787 Y-1.5002 I0.0001 J-0.0106
X9.5213 Y-1.4998 Z-0.0197 I0.0213 J0.0002
X9.4787 Y-1.5002 Z-0.0394 I-0.0213 J-0.0002
X9.5213 Y-1.4998 Z-0.0591 I0.0213 J0.0002
X9.4787 Y-1.5002 Z-0.0787 I-0.0213 J-0.0002
X9.5213 Y-1.4998 Z-0.0984 I0.0213 J0.0002
X9.4787 Y-1.5002 Z-0.1181 I-0.0213 J-0.0002
X9.5071 Y-1.5201 Z-0.13 I0.0213 J0.0002
X9.4929 Y-1.4799 I-0.0071 J0.0201
X9.5071 Y-1.5201 I0.0071 J-0.0201
X9.5136 Y-1.5065 I-0.0035 J0.01
G1 X9.5109 Y-1.4991
X9.5099 Y-1.4962 Z-0.1297
X9.5089 Y-1.4934 Z-0.1288
X9.508 Y-1.4908 Z-0.1273
X9.5072 Y-1.4886 Z-0.1254
X9.5066 Y-1.4867 Z-0.123
X9.5061 Y-1.4853 Z-0.1203
X9.5058 Y-1.4845 Z-0.1173
X9.5057 Y-1.4842 Z-0.1143
G0 Z0.2
X10.0133 Y-1.4898
Z0.08
G1 Z0.0157 F30.
X10.013 Z0.0127
X10.0121 Z0.0097
X10.0107 Y-1.4897 Z0.007
X10.0087 Y-1.4896 Z0.0046
X10.0063 Z0.0027
X10.0036 Y-1.4895 Z0.0012
X10.0007 Y-1.4894 Z0.0003
X9.9976 Y-1.4893 Z0.
X9.9897 Y-1.489
G3 X9.9788 Y-1.4993 I-0.0003 J-0.0106
X10.0212 Y-1.5007 Z-0.0197 I0.0212 J-0.0007
X9.9788 Y-1.4993 Z-0.0394 I-0.0212 J0.0007
X10.0212 Y-1.5007 Z-0.0591 I0.0212 J-0.0007
X9.9788 Y-1.4993 Z-0.0787 I-0.0212 J0.0007
X10.0212 Y-1.5007 Z-0.0984 I0.0212 J-0.0007
X9.9788 Y-1.4993 Z-0.1181 I-0.0212 J0.0007
X10.0062 Y-1.5203 Z-0.13 I0.0212 J-0.0007
X9.9938 Y-1.4797 I-0.0062 J0.0203
X10.0062 Y-1.5203 I0.0062 J-0.0203
X10.0133 Y-1.5071 I-0.0031 J0.0102
G1 X10.011 Y-1.4995
X10.0101 Y-1.4966 Z-0.1297
X10.0092 Y-1.4938 Z-0.1288
X10.0084 Y-1.4912 Z-0.1273
X10.0077 Y-1.4889 Z-0.1254
X10.0072 Y-1.487 Z-0.123
X10.0067 Y-1.4856 Z-0.1203
X10.0065 Y-1.4848 Z-0.1173
X10.0064 Y-1.4845 Z-0.1143
G0 Z0.2
X8.9933 Y-2.0154
Z0.08
G1 Z0.0157 F30.
X8.9936 Y-2.0152 Z0.0127
X8.9943 Y-2.0148 Z0.0097
X8.9956 Y-2.0142 Z0.007
X8.9974 Y-2.0133 Z0.0046
X8.9995 Y-2.0122 Z0.0027
X9.0019 Y-2.011 Z0.0012
X9.0046 Y-2.0096 Z0.0003
X9.0073 Y-2.0082 Z0.
X9.0143 Y-2.0046
G3 X9.0189 Y-1.9903 I-0.0048 J0.0095
X8.9811 Y-2.0097 Z-0.0197 I-0.0189 J-0.0097
X9.0189 Y-1.9903 Z-0.0394 I0.0189 J0.0097
X8.9811 Y-2.0097 Z-0.0591 I-0.0189 J-0.0097
X9.0189 Y-1.9903 Z-0.0787 I0.0189 J0.0097
X8.9811 Y-2.0097 Z-0.0984 I-0.0189 J-0.0097
X9.0189 Y-1.9903 Z-0.1181 I0.0189 J0.0097
X8.9847 Y-1.9852 Z-0.13 I-0.0189 J-0.0097
X9.0153 Y-2.0148 I0.0153 J-0.0148
X8.9847 Y-1.9852 I-0.0153 J0.0148
X8.985 Y-2.0002 I0.0076 J-0.0074
G1 X8.9906 Y-2.0057
X8.9928 Y-2.0078 Z-0.1297
X8.9949 Y-2.0099 Z-0.1288
X8.9969 Y-2.0118 Z-0.1273
X8.9986 Y-2.0135 Z-0.1254
X9. Y-2.0148 Z-0.123
X9.0011 Y-2.0158 Z-0.1203
X9.0017 Y-2.0165 Z-0.1173
X9.0019 Y-2.0167 Z-0.1143
G0 Z0.2
X9.5126 Y-1.9889
Z0.08
G1 Z0.0157 F30.
X9.5123 Y-1.989 Z0.0127
X9.5114 Z0.0097
X9.51 Z0.007
X9.508 Y-1.9891 Z0.0046
X9.5056 Y-1.9892 Z0.0027
X9.5029 Y-1.9893 Z0.0012
X9.5 Y-1.9894 Z0.0003
X9.4969 Y-1.9895 Z0.
X9.489 Y-1.9897
G3 X9.4788 Y-2.0007 I0.0004 J-0.0106
X9.5212 Y-1.9993 Z-0.0197 I0.0212 J0.0007
X9.4788 Y-2.0007 Z-0.0394 I-0.0212 J-0.0007
X9.5212 Y-1.9993 Z-0.0591 I0.0212 J0.0007
X9.4788 Y-2.0007 Z-0.0787 I-0.0212 J-0.0007
X9.5212 Y-1.9993 Z-0.0984 I0.0212 J0.0007
X9.4788 Y-2.0007 Z-0.1181 I-0.0212 J-0.0007
X9.5075 Y-2.0199 Z-0.13 I0.0212 J0.0007
X9.4925 Y-1.9801 I-0.0075 J0.0199
X9.5075 Y-2.0199 I0.0075 J-0.0199
X9.5137 Y-2.0062 I-0.0037 J0.0099
G1 X9.5109 Y-1.9988
X9.5098 Y-1.996 Z-0.1297
X9.5088 Y-1.9932 Z-0.1288
X9.5078 Y-1.9906 Z-0.1273
X9.507 Y-1.9884 Z-0.1254
X9.5063 Y-1.9866 Z-0.123
X9.5058 Y-1.9852 Z-0.1203
X9.5055 Y-1.9844 Z-0.1173
X9.5054 Y-1.9841 Z-0.1143
G0 Z0.2
X10.0133 Y-1.9898
Z0.08
G1 Z0.0157 F30.
X10.013 Z0.0127
X10.0121 Z0.0097
X10.0107 Y-1.9897 Z0.007
X10.0087 Y-1.9896 Z0.0046
X10.0063 Z0.0027
X10.0036 Y-1.9895 Z0.0012
X10.0007 Y-1.9894 Z0.0003
X9.9976 Y-1.9893 Z0.
X9.9897 Y-1.989
G3 X9.9788 Y-1.9993 I-0.0003 J-0.0106
X10.0212 Y-2.0007 Z-0.0197 I0.0212 J-0.0007
X9.9788 Y-1.9993 Z-0.0394 I-0.0212 J0.0007
X10.0212 Y-2.0007 Z-0.0591 I0.0212 J-0.0007
X9.9788 Y-1.9993 Z-0.0787 I-0.0212 J0.0007
X10.0212 Y-2.0007 Z-0.0984 I0.0212 J-0.0007
X9.9788 Y-1.9993 Z-0.1181 I-0.0212 J0.0007
X10.0062 Y-2.0203 Z-0.13 I0.0212 J-0.0007
X9.9938 Y-1.9797 I-0.0062 J0.0203
X10.0062 Y-2.0203 I0.0062 J-0.0203
X10.0133 Y-2.0071 I-0.0031 J0.0102
G1 X10.011 Y-1.9996
X10.0101 Y-1.9966 Z-0.1297
X10.0092 Y-1.9938 Z-0.1288
X10.0084 Y-1.9912 Z-0.1273
X10.0077 Y-1.9889 Z-0.1254
X10.0072 Y-1.987 Z-0.123
X10.0067 Y-1.9856 Z-0.1203
X10.0065 Y-1.9848 Z-0.1173
X10.0064 Y-1.9845 Z-0.1143
G0 Z0.2
X10.0105 Y-2.5131
Z0.08
G1 Z0.0157 F30.
Y-2.5128 Z0.0127
Y-2.5119 Z0.0097
Y-2.5105 Z0.007
Y-2.5085 Z0.0046
X10.0106 Y-2.5061 Z0.0027
Y-2.5034 Z0.0012
Y-2.5004 Z0.0003
X10.0107 Y-2.4974 Z0.
X10.0108 Y-2.4895
G3 X10.0003 Y-2.4787 I-0.0106 J0.0001
X9.9997 Y-2.5213 Z-0.0197 I-0.0003 J-0.0213
X10.0003 Y-2.4787 Z-0.0394 I0.0003 J0.0213
X9.9997 Y-2.5213 Z-0.0591 I-0.0003 J-0.0213
X10.0003 Y-2.4787 Z-0.0787 I0.0003 J0.0213
X9.9997 Y-2.5213 Z-0.0984 I-0.0003 J-0.0213
X10.0003 Y-2.4787 Z-0.1181 I0.0003 J0.0213
X9.9798 Y-2.5066 Z-0.13 I-0.0003 J-0.0213
X10.0202 Y-2.4934 I0.0202 J0.0066
X9.9798 Y-2.5066 I-0.0202 J-0.0066
X9.9932 Y-2.5134 I0.0101 J0.0033
G1 X10.0007 Y-2.511
X10.0036 Y-2.51 Z-0.1297
X10.0064 Y-2.5091 Z-0.1288
X10.009 Y-2.5083 Z-0.1273
X10.0113 Y-2.5075 Z-0.1254
X10.0131 Y-2.5069 Z-0.123
X10.0145 Y-2.5065 Z-0.1203
X10.0154 Y-2.5062 Z-0.1173
X10.0156 Y-2.5061 Z-0.1143
G0 Z0.2
X9.4869 Y-2.5105
Z0.08
G1 Z0.0157 F30.
X9.4872 Z0.0127
X9.4881 Z0.0097
X9.4895 Z0.007
X9.4915 Z0.0046
X9.4939 Y-2.5106 Z0.0027
X9.4966 Z0.0012
X9.4996 Z0.0003
X9.5026 Y-2.5107 Z0.
X9.5105 Y-2.5108
G3 X9.5213 Y-2.5003 I0.0001 J0.0106
X9.4787 Y-2.4997 Z-0.0197 I-0.0213 J0.0003
X9.5213 Y-2.5003 Z-0.0394 I0.0213 J-0.0003
X9.4787 Y-2.4997 Z-0.0591 I-0.0213 J0.0003
X9.5213 Y-2.5003 Z-0.0787 I0.0213 J-0.0003
X9.4787 Y-2.4997 Z-0.0984 I-0.0213 J0.0003
X9.5213 Y-2.5003 Z-0.1181 I0.0213 J-0.0003
X9.4934 Y-2.4798 Z-0.13 I-0.0213 J0.0003
X9.5066 Y-2.5202 I0.0066 J-0.0202
X9.4934 Y-2.4798 I-0.0066 J0.0202
X9.4866 Y-2.4932 I0.0033 J-0.0101
G1 X9.489 Y-2.5007
X9.49 Y-2.5036 Z-0.1297
X9.4909 Y-2.5064 Z-0.1288
X9.4917 Y-2.509 Z-0.1273
X9.4925 Y-2.5113 Z-0.1254
X9.4931 Y-2.5131 Z-0.123
X9.4935 Y-2.5145 Z-0.1203
X9.4938 Y-2.5154 Z-0.1173
X9.4939 Y-2.5156 Z-0.1143
G0 Z0.2
X8.9867 Y-2.5102
Z0.08
G1 Z0.0157 F30.
X8.987 Z0.0127
X8.9879 Y-2.5103 Z0.0097
X8.9893 Z0.007
X8.9913 Y-2.5104 Z0.0046
X8.9937 Z0.0027
X8.9964 Y-2.5105 Z0.0012
X8.9993 Y-2.5106 Z0.0003
X9.0024 Y-2.5107 Z0.
X9.0103 Y-2.511
G3 X9.0212 Y-2.5007 I0.0003 J0.0106
X8.9788 Y-2.4993 Z-0.0197 I-0.0212 J0.0007
X9.0212 Y-2.5007 Z-0.0394 I0.0212 J-0.0007
X8.9788 Y-2.4993 Z-0.0591 I-0.0212 J0.0007
X9.0212 Y-2.5007 Z-0.0787 I0.0212 J-0.0007
X8.9788 Y-2.4993 Z-0.0984 I-0.0212 J0.0007
X9.0212 Y-2.5007 Z-0.1181 I0.0212 J-0.0007
X8.9938 Y-2.4797 Z-0.13 I-0.0212 J0.0007
X9.0062 Y-2.5203 I0.0062 J-0.0203
X8.9938 Y-2.4797 I-0.0062 J0.0203
X8.9867 Y-2.4929 I0.0031 J-0.0102
G1 X8.989 Y-2.5005
X8.9899 Y-2.5034 Z-0.1297
X8.9908 Y-2.5062 Z-0.1288
X8.9916 Y-2.5088 Z-0.1273
X8.9923 Y-2.5111 Z-0.1254
X8.9928 Y-2.513 Z-0.123
X8.9933 Y-2.5144 Z-0.1203
X8.9935 Y-2.5152 Z-0.1173
X8.9936 Y-2.5155 Z-0.1143
G0 Z0.2
X9.0108 Y-3.0129
Z0.08
G1 Z0.0157 F30.
Y-3.0125 Z0.0127
Y-3.0117 Z0.0097
Y-3.0102 Z0.007
X9.0107 Y-3.0082 Z0.0046
Y-3.0059 Z0.0027
Y-3.0031 Z0.0012
X9.0106 Y-3.0002 Z0.0003
Y-2.9971 Z0.
X9.0105 Y-2.9892
G3 X8.9997 Y-2.9787 I-0.0106 J-0.0001
X9.0003 Y-3.0213 Z-0.0197 I0.0003 J-0.0213
X8.9997 Y-2.9787 Z-0.0394 I-0.0003 J0.0213
X9.0003 Y-3.0213 Z-0.0591 I0.0003 J-0.0213
X8.9997 Y-2.9787 Z-0.0787 I-0.0003 J0.0213
X9.0003 Y-3.0213 Z-0.0984 I0.0003 J-0.0213
X8.9997 Y-2.9787 Z-0.1181 I-0.0003 J0.0213
X8.98 Y-3.0071 Z-0.13 I0.0003 J-0.0213
X9.02 Y-2.9929 I0.02 J0.0071
X8.98 Y-3.0071 I-0.02 J-0.0071
X8.9935 Y-3.0136 I0.01 J0.0035
G1 X9.0009 Y-3.0109
X9.0038 Y-3.0099 Z-0.1297
X9.0066 Y-3.0089 Z-0.1288
X9.0092 Y-3.008 Z-0.1273
X9.0114 Y-3.0072 Z-0.1254
X9.0133 Y-3.0066 Z-0.123
X9.0147 Y-3.0061 Z-0.1203
X9.0155 Y-3.0058 Z-0.1173
X9.0158 Y-3.0057 Z-0.1143
G0 Z0.2
X9.5129 Y-2.9892
Z0.08
G1 Z0.0157 F30.
X9.5126 Z0.0127
X9.5117 Z0.0097
X9.5102 Z0.007
X9.5083 Y-2.9893 Z0.0046
X9.5059 Z0.0027
X9.5031 Z0.0012
X9.5002 Y-2.9894 Z0.0003
X9.4971 Z0.
X9.4892 Y-2.9895
G3 X9.4787 Y-3.0002 I0.0001 J-0.0106
X9.5213 Y-2.9997 Z-0.0197 I0.0213 J0.0002
X9.4787 Y-3.0002 Z-0.0394 I-0.0213 J-0.0002
X9.5213 Y-2.9997 Z-0.0591 I0.0213 J0.0002
X9.4787 Y-3.0002 Z-0.0787 I-0.0213 J-0.0002
X9.5213 Y-2.9997 Z-0.0984 I0.0213 J0.0002
X9.4787 Y-3.0002 Z-0.1181 I-0.0213 J-0.0002
X9.5071 Y-3.0201 Z-0.13 I0.0213 J0.0002
X9.4929 Y-2.9799 I-0.0071 J0.0201
X9.5071 Y-3.0201 I0.0071 J-0.0201
X9.5136 Y-3.0065 I-0.0035 J0.01
G1 X9.5109 Y-2.9991
X9.5099 Y-2.9962 Z-0.1297
X9.5089 Y-2.9934 Z-0.1288
X9.508 Y-2.9908 Z-0.1273
X9.5072 Y-2.9886 Z-0.1254
X9.5066 Y-2.9867 Z-0.123
X9.5061 Y-2.9853 Z-0.1203
X9.5058 Y-2.9845 Z-0.1173
X9.5057 Y-2.9842 Z-0.1143
G0 Z0.2
X10.0133 Y-2.9898
Z0.08
G1 Z0.0157 F30.
X10.013 Z0.0127
X10.0121 Z0.0097
X10.0107 Y-2.9897 Z0.007
X10.0087 Y-2.9896 Z0.0046
X10.0063 Z0.0027
X10.0036 Y-2.9895 Z0.0012
X10.0007 Y-2.9894 Z0.0003
X9.9976 Y-2.9893 Z0.
X9.9897 Y-2.989
G3 X9.9788 Y-2.9993 I-0.0003 J-0.0106
X10.0212 Y-3.0007 Z-0.0197 I0.0212 J-0.0007
X9.9788 Y-2.9993 Z-0.0394 I-0.0212 J0.0007
X10.0212 Y-3.0007 Z-0.0591 I0.0212 J-0.0007
X9.9788 Y-2.9993 Z-0.0787 I-0.0212 J0.0007
X10.0212 Y-3.0007 Z-0.0984 I0.0212 J-0.0007
X9.9788 Y-2.9993 Z-0.1181 I-0.0212 J0.0007
X10.0062 Y-3.0203 Z-0.13 I0.0212 J-0.0007
X9.9938 Y-2.9797 I-0.0062 J0.0203
X10.0062 Y-3.0203 I0.0062 J-0.0203
X10.0133 Y-3.0071 I-0.0031 J0.0102
G1 X10.011 Y-2.9995
X10.0101 Y-2.9966 Z-0.1297
X10.0092 Y-2.9938 Z-0.1288
X10.0084 Y-2.9912 Z-0.1273
X10.0077 Y-2.9889 Z-0.1254
X10.0072 Y-2.987 Z-0.123
X10.0067 Y-2.9856 Z-0.1203
X10.0065 Y-2.9848 Z-0.1173
X10.0064 Y-2.9845 Z-0.1143
G0 Z0.2
X10.0105 Y-3.5131
Z0.08
G1 Z0.0157 F30.
Y-3.5128 Z0.0127
Y-3.5119 Z0.0097
Y-3.5105 Z0.007
Y-3.5085 Z0.0046
X10.0106 Y-3.5061 Z0.0027
Y-3.5034 Z0.0012
Y-3.5004 Z0.0003
X10.0107 Y-3.4974 Z0.
X10.0108 Y-3.4895
G3 X10.0003 Y-3.4787 I-0.0106 J0.0001
X9.9997 Y-3.5213 Z-0.0197 I-0.0003 J-0.0213
X10.0003 Y-3.4787 Z-0.0394 I0.0003 J0.0213
X9.9997 Y-3.5213 Z-0.0591 I-0.0003 J-0.0213
X10.0003 Y-3.4787 Z-0.0787 I0.0003 J0.0213
X9.9997 Y-3.5213 Z-0.0984 I-0.0003 J-0.0213
X10.0003 Y-3.4787 Z-0.1181 I0.0003 J0.0213
X9.9798 Y-3.5066 Z-0.13 I-0.0003 J-0.0213
X10.0202 Y-3.4934 I0.0202 J0.0066
X9.9798 Y-3.5066 I-0.0202 J-0.0066
X9.9932 Y-3.5134 I0.0101 J0.0033
G1 X10.0007 Y-3.511
X10.0036 Y-3.51 Z-0.1297
X10.0064 Y-3.5091 Z-0.1288
X10.009 Y-3.5083 Z-0.1273
X10.0113 Y-3.5075 Z-0.1254
X10.0131 Y-3.5069 Z-0.123
X10.0145 Y-3.5065 Z-0.1203
X10.0154 Y-3.5062 Z-0.1173
X10.0156 Y-3.5061 Z-0.1143
G0 Z0.2
X9.4869 Y-3.5105
Z0.08
G1 Z0.0157 F30.
X9.4872 Z0.0127
X9.4881 Z0.0097
X9.4895 Z0.007
X9.4915 Z0.0046
X9.4939 Y-3.5106 Z0.0027
X9.4966 Z0.0012
X9.4996 Z0.0003
X9.5026 Y-3.5107 Z0.
X9.5105 Y-3.5108
G3 X9.5213 Y-3.5003 I0.0001 J0.0106
X9.4787 Y-3.4997 Z-0.0197 I-0.0213 J0.0003
X9.5213 Y-3.5003 Z-0.0394 I0.0213 J-0.0003
X9.4787 Y-3.4997 Z-0.0591 I-0.0213 J0.0003
X9.5213 Y-3.5003 Z-0.0787 I0.0213 J-0.0003
X9.4787 Y-3.4997 Z-0.0984 I-0.0213 J0.0003
X9.5213 Y-3.5003 Z-0.1181 I0.0213 J-0.0003
X9.4934 Y-3.4798 Z-0.13 I-0.0213 J0.0003
X9.5066 Y-3.5202 I0.0066 J-0.0202
X9.4934 Y-3.4798 I-0.0066 J0.0202
X9.4866 Y-3.4932 I0.0033 J-0.0101
G1 X9.489 Y-3.5007
X9.49 Y-3.5036 Z-0.1297
X9.4909 Y-3.5064 Z-0.1288
X9.4917 Y-3.509 Z-0.1273
X9.4925 Y-3.5113 Z-0.1254
X9.4931 Y-3.5131 Z-0.123
X9.4935 Y-3.5145 Z-0.1203
X9.4938 Y-3.5154 Z-0.1173
X9.4939 Y-3.5156 Z-0.1143
G0 Z0.2
X8.9867 Y-3.5102
Z0.08
G1 Z0.0157 F30.
X8.987 Z0.0127
X8.9879 Y-3.5103 Z0.0097
X8.9893 Z0.007
X8.9913 Y-3.5104 Z0.0046
X8.9937 Z0.0027
X8.9964 Y-3.5105 Z0.0012
X8.9993 Y-3.5106 Z0.0003
X9.0024 Y-3.5107 Z0.
X9.0103 Y-3.511
G3 X9.0212 Y-3.5007 I0.0003 J0.0106
X8.9788 Y-3.4993 Z-0.0197 I-0.0212 J0.0007
X9.0212 Y-3.5007 Z-0.0394 I0.0212 J-0.0007
X8.9788 Y-3.4993 Z-0.0591 I-0.0212 J0.0007
X9.0212 Y-3.5007 Z-0.0787 I0.0212 J-0.0007
X8.9788 Y-3.4993 Z-0.0984 I-0.0212 J0.0007
X9.0212 Y-3.5007 Z-0.1181 I0.0212 J-0.0007
X8.9938 Y-3.4797 Z-0.13 I-0.0212 J0.0007
X9.0062 Y-3.5203 I0.0062 J-0.0203
X8.9938 Y-3.4797 I-0.0062 J0.0203
X8.9867 Y-3.4929 I0.0031 J-0.0102
G1 X8.989 Y-3.5005
X8.9899 Y-3.5034 Z-0.1297
X8.9908 Y-3.5062 Z-0.1288
X8.9916 Y-3.5088 Z-0.1273
X8.9923 Y-3.5111 Z-0.1254
X8.9928 Y-3.513 Z-0.123
X8.9933 Y-3.5144 Z-0.1203
X8.9935 Y-3.5152 Z-0.1173
X8.9936 Y-3.5155 Z-0.1143
G0 Z0.2
X9.0108 Y-4.0129
Z0.08
G1 Z0.0157 F30.
Y-4.0125 Z0.0127
Y-4.0117 Z0.0097
Y-4.0102 Z0.007
X9.0107 Y-4.0082 Z0.0046
Y-4.0059 Z0.0027
Y-4.0031 Z0.0012
X9.0106 Y-4.0002 Z0.0003
Y-3.9971 Z0.
X9.0105 Y-3.9892
G3 X8.9997 Y-3.9787 I-0.0106 J-0.0001
X9.0003 Y-4.0213 Z-0.0197 I0.0003 J-0.0213
X8.9997 Y-3.9787 Z-0.0394 I-0.0003 J0.0213
X9.0003 Y-4.0213 Z-0.0591 I0.0003 J-0.0213
X8.9997 Y-3.9787 Z-0.0787 I-0.0003 J0.0213
X9.0003 Y-4.0213 Z-0.0984 I0.0003 J-0.0213
X8.9997 Y-3.9787 Z-0.1181 I-0.0003 J0.0213
X8.98 Y-4.0071 Z-0.13 I0.0003 J-0.0213
X9.02 Y-3.9929 I0.02 J0.0071
X8.98 Y-4.0071 I-0.02 J-0.0071
X8.9935 Y-4.0136 I0.01 J0.0035
G1 X9.0009 Y-4.0109
X9.0038 Y-4.0099 Z-0.1297
X9.0066 Y-4.0089 Z-0.1288
X9.0092 Y-4.008 Z-0.1273
X9.0114 Y-4.0072 Z-0.1254
X9.0133 Y-4.0066 Z-0.123
X9.0147 Y-4.0061 Z-0.1203
X9.0155 Y-4.0058 Z-0.1173
X9.0158 Y-4.0057 Z-0.1143
G0 Z0.2
X9.5129 Y-3.9892
Z0.08
G1 Z0.0157 F30.
X9.5126 Z0.0127
X9.5117 Z0.0097
X9.5102 Z0.007
X9.5083 Y-3.9893 Z0.0046
X9.5059 Z0.0027
X9.5031 Z0.0012
X9.5002 Y-3.9894 Z0.0003
X9.4971 Z0.
X9.4892 Y-3.9895
G3 X9.4787 Y-4.0002 I0.0001 J-0.0106
X9.5213 Y-3.9998 Z-0.0197 I0.0213 J0.0002
X9.4787 Y-4.0002 Z-0.0394 I-0.0213 J-0.0002
X9.5213 Y-3.9998 Z-0.0591 I0.0213 J0.0002
X9.4787 Y-4.0002 Z-0.0787 I-0.0213 J-0.0002
X9.5213 Y-3.9998 Z-0.0984 I0.0213 J0.0002
X9.4787 Y-4.0002 Z-0.1181 I-0.0213 J-0.0002
X9.5071 Y-4.0201 Z-0.13 I0.0213 J0.0002
X9.4929 Y-3.9799 I-0.0071 J0.0201
X9.5071 Y-4.0201 I0.0071 J-0.0201
X9.5136 Y-4.0065 I-0.0035 J0.01
G1 X9.5109 Y-3.9991
X9.5099 Y-3.9962 Z-0.1297
X9.5089 Y-3.9934 Z-0.1288
X9.508 Y-3.9908 Z-0.1273
X9.5072 Y-3.9886 Z-0.1254
X9.5066 Y-3.9867 Z-0.123
X9.5061 Y-3.9853 Z-0.1203
X9.5058 Y-3.9845 Z-0.1173
X9.5057 Y-3.9842 Z-0.1143
G0 Z0.2
X10.0133 Y-3.9898
Z0.08
G1 Z0.0157 F30.
X10.013 Z0.0127
X10.0121 Z0.0097
X10.0107 Y-3.9897 Z0.007
X10.0087 Y-3.9896 Z0.0046
X10.0063 Z0.0027
X10.0036 Y-3.9895 Z0.0012
X10.0007 Y-3.9894 Z0.0003
X9.9976 Y-3.9893 Z0.
X9.9897 Y-3.989
G3 X9.9788 Y-3.9993 I-0.0003 J-0.0106
X10.0212 Y-4.0007 Z-0.0197 I0.0212 J-0.0007
X9.9788 Y-3.9993 Z-0.0394 I-0.0212 J0.0007
X10.0212 Y-4.0007 Z-0.0591 I0.0212 J-0.0007
X9.9788 Y-3.9993 Z-0.0787 I-0.0212 J0.0007
X10.0212 Y-4.0007 Z-0.0984 I0.0212 J-0.0007
X9.9788 Y-3.9993 Z-0.1181 I-0.0212 J0.0007
X10.0062 Y-4.0203 Z-0.13 I0.0212 J-0.0007
X9.9938 Y-3.9797 I-0.0062 J0.0203
X10.0062 Y-4.0203 I0.0062 J-0.0203
X10.0133 Y-4.0071 I-0.0031 J0.0102
G1 X10.011 Y-3.9995
X10.0101 Y-3.9966 Z-0.1297
X10.0092 Y-3.9938 Z-0.1288
X10.0084 Y-3.9912 Z-0.1273
X10.0077 Y-3.9889 Z-0.1254
X10.0072 Y-3.987 Z-0.123
X10.0067 Y-3.9856 Z-0.1203
X10.0065 Y-3.9848 Z-0.1173
X10.0064 Y-3.9845 Z-0.1143
G0 Z0.2
X10.0105 Y-4.5131
Z0.08
G1 Z0.0157 F30.
Y-4.5128 Z0.0127
Y-4.5119 Z0.0097
Y-4.5105 Z0.007
Y-4.5085 Z0.0046
X10.0106 Y-4.5061 Z0.0027
Y-4.5034 Z0.0012
Y-4.5004 Z0.0003
X10.0107 Y-4.4974 Z0.
X10.0108 Y-4.4895
G3 X10.0003 Y-4.4787 I-0.0106 J0.0001
X9.9997 Y-4.5213 Z-0.0197 I-0.0003 J-0.0213
X10.0003 Y-4.4787 Z-0.0394 I0.0003 J0.0213
X9.9997 Y-4.5213 Z-0.0591 I-0.0003 J-0.0213
X10.0003 Y-4.4787 Z-0.0787 I0.0003 J0.0213
X9.9997 Y-4.5213 Z-0.0984 I-0.0003 J-0.0213
X10.0003 Y-4.4787 Z-0.1181 I0.0003 J0.0213
X9.9798 Y-4.5066 Z-0.13 I-0.0003 J-0.0213
X10.0202 Y-4.4934 I0.0202 J0.0066
X9.9798 Y-4.5066 I-0.0202 J-0.0066
X9.9932 Y-4.5134 I0.0101 J0.0033
G1 X10.0007 Y-4.511
X10.0036 Y-4.51 Z-0.1297
X10.0064 Y-4.5091 Z-0.1288
X10.009 Y-4.5083 Z-0.1273
X10.0113 Y-4.5075 Z-0.1254
X10.0131 Y-4.5069 Z-0.123
X10.0145 Y-4.5065 Z-0.1203
X10.0154 Y-4.5062 Z-0.1173
X10.0156 Y-4.5061 Z-0.1143
G0 Z0.2
X9.4869 Y-4.5105
Z0.08
G1 Z0.0157 F30.
X9.4872 Z0.0127
X9.4881 Z0.0097
X9.4895 Z0.007
X9.4915 Z0.0046
X9.4939 Y-4.5106 Z0.0027
X9.4966 Z0.0012
X9.4996 Z0.0003
X9.5026 Y-4.5107 Z0.
X9.5105 Y-4.5108
G3 X9.5213 Y-4.5003 I0.0001 J0.0106
X9.4787 Y-4.4997 Z-0.0197 I-0.0213 J0.0003
X9.5213 Y-4.5003 Z-0.0394 I0.0213 J-0.0003
X9.4787 Y-4.4997 Z-0.0591 I-0.0213 J0.0003
X9.5213 Y-4.5003 Z-0.0787 I0.0213 J-0.0003
X9.4787 Y-4.4997 Z-0.0984 I-0.0213 J0.0003
X9.5213 Y-4.5003 Z-0.1181 I0.0213 J-0.0003
X9.4934 Y-4.4798 Z-0.13 I-0.0213 J0.0003
X9.5066 Y-4.5202 I0.0066 J-0.0202
X9.4934 Y-4.4798 I-0.0066 J0.0202
X9.4866 Y-4.4932 I0.0033 J-0.0101
G1 X9.489 Y-4.5007
X9.49 Y-4.5036 Z-0.1297
X9.4909 Y-4.5064 Z-0.1288
X9.4917 Y-4.509 Z-0.1273
X9.4925 Y-4.5113 Z-0.1254
X9.4931 Y-4.5131 Z-0.123
X9.4935 Y-4.5145 Z-0.1203
X9.4938 Y-4.5154 Z-0.1173
X9.4939 Y-4.5156 Z-0.1143
G0 Z0.2
X8.9867 Y-4.5102
Z0.08
G1 Z0.0157 F30.
X8.987 Z0.0127
X8.9879 Y-4.5103 Z0.0097
X8.9893 Z0.007
X8.9913 Y-4.5104 Z0.0046
X8.9937 Z0.0027
X8.9964 Y-4.5105 Z0.0012
X8.9993 Y-4.5106 Z0.0003
X9.0024 Y-4.5107 Z0.
X9.0103 Y-4.511
G3 X9.0212 Y-4.5007 I0.0003 J0.0106
X8.9788 Y-4.4993 Z-0.0197 I-0.0212 J0.0007
X9.0212 Y-4.5007 Z-0.0394 I0.0212 J-0.0007
X8.9788 Y-4.4993 Z-0.0591 I-0.0212 J0.0007
X9.0212 Y-4.5007 Z-0.0787 I0.0212 J-0.0007
X8.9788 Y-4.4993 Z-0.0984 I-0.0212 J0.0007
X9.0212 Y-4.5007 Z-0.1181 I0.0212 J-0.0007
X8.9938 Y-4.4797 Z-0.13 I-0.0212 J0.0007
X9.0062 Y-4.5203 I0.0062 J-0.0203
X8.9938 Y-4.4797 I-0.0062 J0.0203
X8.9867 Y-4.4929 I0.0031 J-0.0102
G1 X8.989 Y-4.5005
X8.9899 Y-4.5034 Z-0.1297
X8.9908 Y-4.5062 Z-0.1288
X8.9916 Y-4.5088 Z-0.1273
X8.9923 Y-4.5111 Z-0.1254
X8.9928 Y-4.513 Z-0.123
X8.9933 Y-4.5144 Z-0.1203
X8.9935 Y-4.5152 Z-0.1173
X8.9936 Y-4.5155 Z-0.1143
G0 Z0.2
X9.0108 Y-5.0129
Z0.08
G1 Z0.0157 F30.
Y-5.0125 Z0.0127
Y-5.0117 Z0.0097
Y-5.0102 Z0.007
X9.0107 Y-5.0082 Z0.0046
Y-5.0059 Z0.0027
Y-5.0031 Z0.0012
X9.0106 Y-5.0002 Z0.0003
Y-4.9971 Z0.
X9.0105 Y-4.9892
G3 X8.9997 Y-4.9787 I-0.0106 J-0.0001
X9.0003 Y-5.0213 Z-0.0197 I0.0003 J-0.0213
X8.9997 Y-4.9787 Z-0.0394 I-0.0003 J0.0213
X9.0003 Y-5.0213 Z-0.0591 I0.0003 J-0.0213
X8.9997 Y-4.9787 Z-0.0787 I-0.0003 J0.0213
X9.0003 Y-5.0213 Z-0.0984 I0.0003 J-0.0213
X8.9997 Y-4.9787 Z-0.1181 I-0.0003 J0.0213
X8.98 Y-5.0071 Z-0.13 I0.0003 J-0.0213
X9.02 Y-4.9929 I0.02 J0.0071
X8.98 Y-5.0071 I-0.02 J-0.0071
X8.9935 Y-5.0136 I0.01 J0.0035
G1 X9.0009 Y-5.0109
X9.0038 Y-5.0099 Z-0.1297
X9.0066 Y-5.0089 Z-0.1288
X9.0092 Y-5.008 Z-0.1273
X9.0114 Y-5.0072 Z-0.1254
X9.0133 Y-5.0066 Z-0.123
X9.0147 Y-5.0061 Z-0.1203
X9.0155 Y-5.0058 Z-0.1173
X9.0158 Y-5.0057 Z-0.1143
G0 Z0.2
X9.5129 Y-4.9892
Z0.08
G1 Z0.0157 F30.
X9.5126 Z0.0127
X9.5117 Z0.0097
X9.5102 Z0.007
X9.5083 Y-4.9893 Z0.0046
X9.5059 Z0.0027
X9.5031 Z0.0012
X9.5002 Y-4.9894 Z0.0003
X9.4971 Z0.
X9.4892 Y-4.9895
G3 X9.4787 Y-5.0002 I0.0001 J-0.0106
X9.5213 Y-4.9998 Z-0.0197 I0.0213 J0.0002
X9.4787 Y-5.0002 Z-0.0394 I-0.0213 J-0.0002
X9.5213 Y-4.9998 Z-0.0591 I0.0213 J0.0002
X9.4787 Y-5.0002 Z-0.0787 I-0.0213 J-0.0002
X9.5213 Y-4.9998 Z-0.0984 I0.0213 J0.0002
X9.4787 Y-5.0002 Z-0.1181 I-0.0213 J-0.0002
X9.5071 Y-5.0201 Z-0.13 I0.0213 J0.0002
X9.4929 Y-4.9799 I-0.0071 J0.0201
X9.5071 Y-5.0201 I0.0071 J-0.0201
X9.5136 Y-5.0065 I-0.0035 J0.01
G1 X9.5109 Y-4.9991
X9.5099 Y-4.9962 Z-0.1297
X9.5089 Y-4.9934 Z-0.1288
X9.508 Y-4.9908 Z-0.1273
X9.5072 Y-4.9886 Z-0.1254
X9.5066 Y-4.9867 Z-0.123
X9.5061 Y-4.9853 Z-0.1203
X9.5058 Y-4.9845 Z-0.1173
X9.5057 Y-4.9842 Z-0.1143
G0 Z0.2
X10.0133 Y-4.9898
Z0.08
G1 Z0.0157 F30.
X10.013 Z0.0127
X10.0121 Z0.0097
X10.0107 Y-4.9897 Z0.007
X10.0087 Y-4.9896 Z0.0046
X10.0063 Z0.0027
X10.0036 Y-4.9895 Z0.0012
X10.0007 Y-4.9894 Z0.0003
X9.9976 Y-4.9893 Z0.
X9.9897 Y-4.989
G3 X9.9788 Y-4.9993 I-0.0003 J-0.0106
X10.0212 Y-5.0007 Z-0.0197 I0.0212 J-0.0007
X9.9788 Y-4.9993 Z-0.0394 I-0.0212 J0.0007
X10.0212 Y-5.0007 Z-0.0591 I0.0212 J-0.0007
X9.9788 Y-4.9993 Z-0.0787 I-0.0212 J0.0007
X10.0212 Y-5.0007 Z-0.0984 I0.0212 J-0.0007
X9.9788 Y-4.9993 Z-0.1181 I-0.0212 J0.0007
X10.0062 Y-5.0203 Z-0.13 I0.0212 J-0.0007
X9.9938 Y-4.9797 I-0.0062 J0.0203
X10.0062 Y-5.0203 I0.0062 J-0.0203
X10.0133 Y-5.0071 I-0.0031 J0.0102
G1 X10.011 Y-4.9995
X10.0101 Y-4.9966 Z-0.1297
X10.0092 Y-4.9938 Z-0.1288
X10.0084 Y-4.9912 Z-0.1273
X10.0077 Y-4.9889 Z-0.1254
X10.0072 Y-4.987 Z-0.123
X10.0067 Y-4.9856 Z-0.1203
X10.0065 Y-4.9848 Z-0.1173
X10.0064 Y-4.9845 Z-0.1143
G0 Z0.2
X8.9933 Y-5.5154
Z0.08
G1 Z0.0157 F30.
X8.9936 Y-5.5152 Z0.0127
X8.9943 Y-5.5148 Z0.0097
X8.9956 Y-5.5142 Z0.007
X8.9974 Y-5.5133 Z0.0046
X8.9995 Y-5.5122 Z0.0027
X9.0019 Y-5.511 Z0.0012
X9.0046 Y-5.5096 Z0.0003
X9.0073 Y-5.5082 Z0.
X9.0143 Y-5.5046
G3 X9.0189 Y-5.4903 I-0.0048 J0.0095
X8.9811 Y-5.5097 Z-0.0197 I-0.0189 J-0.0097
X9.0189 Y-5.4903 Z-0.0394 I0.0189 J0.0097
X8.9811 Y-5.5097 Z-0.0591 I-0.0189 J-0.0097
X9.0189 Y-5.4903 Z-0.0787 I0.0189 J0.0097
X8.9811 Y-5.5097 Z-0.0984 I-0.0189 J-0.0097
X9.0189 Y-5.4903 Z-0.1181 I0.0189 J0.0097
X8.9847 Y-5.4852 Z-0.13 I-0.0189 J-0.0097
X9.0153 Y-5.5148 I0.0153 J-0.0148
X8.9847 Y-5.4852 I-0.0153 J0.0148
X8.985 Y-5.5002 I0.0076 J-0.0074
G1 X8.9906 Y-5.5057
X8.9928 Y-5.5078 Z-0.1297
X8.9949 Y-5.5099 Z-0.1288
X8.9969 Y-5.5118 Z-0.1273
X8.9986 Y-5.5135 Z-0.1254
X9. Y-5.5148 Z-0.123
X9.0011 Y-5.5158 Z-0.1203
X9.0017 Y-5.5165 Z-0.1173
X9.0019 Y-5.5167 Z-0.1143
G0 Z0.2
X9.5126 Y-5.4889
Z0.08
G1 Z0.0157 F30.
X9.5123 Y-5.489 Z0.0127
X9.5114 Z0.0097
X9.51 Z0.007
X9.508 Y-5.4891 Z0.0046
X9.5056 Y-5.4892 Z0.0027
X9.5029 Y-5.4893 Z0.0012
X9.5 Y-5.4894 Z0.0003
X9.4969 Y-5.4895 Z0.
X9.489 Y-5.4897
G3 X9.4788 Y-5.5007 I0.0004 J-0.0106
X9.5212 Y-5.4993 Z-0.0197 I0.0212 J0.0007
X9.4788 Y-5.5007 Z-0.0394 I-0.0212 J-0.0007
X9.5212 Y-5.4993 Z-0.0591 I0.0212 J0.0007
X9.4788 Y-5.5007 Z-0.0787 I-0.0212 J-0.0007
X9.5212 Y-5.4993 Z-0.0984 I0.0212 J0.0007
X9.4788 Y-5.5007 Z-0.1181 I-0.0212 J-0.0007
X9.5075 Y-5.5199 Z-0.13 I0.0212 J0.0007
X9.4925 Y-5.4801 I-0.0075 J0.0199
X9.5075 Y-5.5199 I0.0075 J-0.0199
X9.5137 Y-5.5062 I-0.0037 J0.0099
G1 X9.5109 Y-5.4988
X9.5098 Y-5.496 Z-0.1297
X9.5088 Y-5.4932 Z-0.1288
X9.5078 Y-5.4906 Z-0.1273
X9.507 Y-5.4884 Z-0.1254
X9.5063 Y-5.4866 Z-0.123
X9.5058 Y-5.4852 Z-0.1203
X9.5055 Y-5.4844 Z-0.1173
X9.5054 Y-5.4841 Z-0.1143
G0 Z0.2
X10.0133 Y-5.4898
Z0.08
G1 Z0.0157 F30.
X10.013 Z0.0127
X10.0121 Z0.0097
X10.0107 Y-5.4897 Z0.007
X10.0087 Y-5.4896 Z0.0046
X10.0063 Z0.0027
X10.0036 Y-5.4895 Z0.0012
X10.0007 Y-5.4894 Z0.0003
X9.9976 Y-5.4893 Z0.
X9.9897 Y-5.489
G3 X9.9788 Y-5.4993 I-0.0003 J-0.0106
X10.0212 Y-5.5007 Z-0.0197 I0.0212 J-0.0007
X9.9788 Y-5.4993 Z-0.0394 I-0.0212 J0.0007
X10.0212 Y-5.5007 Z-0.0591 I0.0212 J-0.0007
X9.9788 Y-5.4993 Z-0.0787 I-0.0212 J0.0007
X10.0212 Y-5.5007 Z-0.0984 I0.0212 J-0.0007
X9.9788 Y-5.4993 Z-0.1181 I-0.0212 J0.0007
X10.0062 Y-5.5203 Z-0.13 I0.0212 J-0.0007
X9.9938 Y-5.4797 I-0.0062 J0.0203
X10.0062 Y-5.5203 I0.0062 J-0.0203
X10.0133 Y-5.5071 I-0.0031 J0.0102
G1 X10.011 Y-5.4996
X10.0101 Y-5.4966 Z-0.1297
X10.0092 Y-5.4938 Z-0.1288
X10.0084 Y-5.4912 Z-0.1273
X10.0077 Y-5.4889 Z-0.1254
X10.0072 Y-5.487 Z-0.123
X10.0067 Y-5.4856 Z-0.1203
X10.0065 Y-5.4848 Z-0.1173
X10.0064 Y-5.4845 Z-0.1143
G0 Z0.2
X10.0105 Y-6.0131
Z0.08
G1 Z0.0157 F30.
Y-6.0128 Z0.0127
Y-6.0119 Z0.0097
Y-6.0105 Z0.007
Y-6.0085 Z0.0046
X10.0106 Y-6.0061 Z0.0027
Y-6.0034 Z0.0012
Y-6.0004 Z0.0003
X10.0107 Y-5.9974 Z0.
X10.0108 Y-5.9895
G3 X10.0003 Y-5.9787 I-0.0106 J0.0001
X9.9997 Y-6.0213 Z-0.0197 I-0.0003 J-0.0213
X10.0003 Y-5.9787 Z-0.0394 I0.0003 J0.0213
X9.9997 Y-6.0213 Z-0.0591 I-0.0003 J-0.0213
X10.0003 Y-5.9787 Z-0.0787 I0.0003 J0.0213
X9.9997 Y-6.0213 Z-0.0984 I-0.0003 J-0.0213
X10.0003 Y-5.9787 Z-0.1181 I0.0003 J0.0213
X9.9798 Y-6.0066 Z-0.13 I-0.0003 J-0.0213
X10.0202 Y-5.9934 I0.0202 J0.0066
X9.9798 Y-6.0066 I-0.0202 J-0.0066
X9.9932 Y-6.0134 I0.0101 J0.0033
G1 X10.0007 Y-6.011
X10.0036 Y-6.01 Z-0.1297
X10.0064 Y-6.0091 Z-0.1288
X10.009 Y-6.0083 Z-0.1273
X10.0113 Y-6.0075 Z-0.1254
X10.0131 Y-6.0069 Z-0.123
X10.0145 Y-6.0065 Z-0.1203
X10.0154 Y-6.0062 Z-0.1173
X10.0156 Y-6.0061 Z-0.1143
G0 Z0.2
X9.4869 Y-6.0105
Z0.08
G1 Z0.0157 F30.
X9.4872 Z0.0127
X9.4881 Z0.0097
X9.4895 Z0.007
X9.4915 Z0.0046
X9.4939 Y-6.0106 Z0.0027
X9.4966 Z0.0012
X9.4996 Z0.0003
X9.5026 Y-6.0107 Z0.
X9.5105 Y-6.0108
G3 X9.5213 Y-6.0003 I0.0001 J0.0106
X9.4787 Y-5.9997 Z-0.0197 I-0.0213 J0.0003
X9.5213 Y-6.0003 Z-0.0394 I0.0213 J-0.0003
X9.4911 Y-5.9807 Z-0.052 I-0.0213 J0.0003
X9.5089 Y-6.0193 Z-0.0717 I0.0089 J-0.0193
X9.5211 Y-6.0028 Z-0.078 I-0.0089 J0.0193
X9.4789 Y-5.9972 Z-0.0977 I-0.0211 J0.0028
X9.5211 Y-6.0028 Z-0.1174 I0.0211 J-0.0028
X9.4934 Y-5.9798 Z-0.13 I-0.0211 J0.0028
X9.5066 Y-6.0202 I0.0066 J-0.0202
X9.4934 Y-5.9798 I-0.0066 J0.0202
X9.4866 Y-5.9932 I0.0033 J-0.0101
G1 X9.489 Y-6.0007
X9.49 Y-6.0036 Z-0.1297
X9.4909 Y-6.0064 Z-0.1288
X9.4917 Y-6.009 Z-0.1273
X9.4925 Y-6.0113 Z-0.1254
X9.4931 Y-6.0131 Z-0.123
X9.4935 Y-6.0145 Z-0.1203
X9.4938 Y-6.0154 Z-0.1173
X9.4939 Y-6.0156 Z-0.1143
G0 Z0.2
X8.9867 Y-6.0102
Z0.08
G1 Z0.0157 F30.
X8.987 Z0.0127
X8.9879 Y-6.0103 Z0.0097
X8.9893 Z0.007
X8.9913 Y-6.0104 Z0.0046
X8.9937 Z0.0027
X8.9964 Y-6.0105 Z0.0012
X8.9993 Y-6.0106 Z0.0003
X9.0024 Y-6.0107 Z0.
X9.0103 Y-6.011
G3 X9.0212 Y-6.0007 I0.0003 J0.0106
X8.9788 Y-5.9993 Z-0.0197 I-0.0212 J0.0007
X9.0212 Y-6.0007 Z-0.0394 I0.0212 J-0.0007
X8.9788 Y-5.9993 Z-0.0591 I-0.0212 J0.0007
X9.0212 Y-6.0007 Z-0.0787 I0.0212 J-0.0007
X8.9788 Y-5.9993 Z-0.0984 I-0.0212 J0.0007
X9.0212 Y-6.0007 Z-0.1181 I0.0212 J-0.0007
X8.9938 Y-5.9797 Z-0.13 I-0.0212 J0.0007
X9.0062 Y-6.0203 I0.0062 J-0.0203
X8.9938 Y-5.9797 I-0.0062 J0.0203
X8.9867 Y-5.9929 I0.0031 J-0.0102
G1 X8.989 Y-6.0005
X8.9899 Y-6.0034 Z-0.1297
X8.9908 Y-6.0062 Z-0.1288
X8.9916 Y-6.0088 Z-0.1273
X8.9923 Y-6.0111 Z-0.1254
X8.9928 Y-6.013 Z-0.123
X8.9933 Y-6.0144 Z-0.1203
X8.9935 Y-6.0152 Z-0.1173
X8.9936 Y-6.0155 Z-0.1143
G0 Z0.2
X9.0108 Y-6.5129
Z0.08
G1 Z0.0157 F30.
Y-6.5125 Z0.0127
Y-6.5117 Z0.0097
Y-6.5102 Z0.007
X9.0107 Y-6.5082 Z0.0046
Y-6.5059 Z0.0027
Y-6.5031 Z0.0012
X9.0106 Y-6.5002 Z0.0003
Y-6.4971 Z0.
X9.0105 Y-6.4892
G3 X8.9997 Y-6.4787 I-0.0106 J-0.0001
X9.0003 Y-6.5213 Z-0.0197 I0.0003 J-0.0213
X8.9997 Y-6.4787 Z-0.0394 I-0.0003 J0.0213
X9.0003 Y-6.5213 Z-0.0591 I0.0003 J-0.0213
X8.9997 Y-6.4787 Z-0.0787 I-0.0003 J0.0213
X9.0003 Y-6.5213 Z-0.0984 I0.0003 J-0.0213
X8.9997 Y-6.4787 Z-0.1181 I-0.0003 J0.0213
X8.98 Y-6.5071 Z-0.13 I0.0003 J-0.0213
X9.02 Y-6.4929 I0.02 J0.0071
X8.98 Y-6.5071 I-0.02 J-0.0071
X8.9935 Y-6.5136 I0.01 J0.0035
G1 X9.0009 Y-6.5109
X9.0038 Y-6.5099 Z-0.1297
X9.0066 Y-6.5089 Z-0.1288
X9.0092 Y-6.508 Z-0.1273
X9.0114 Y-6.5072 Z-0.1254
X9.0133 Y-6.5066 Z-0.123
X9.0147 Y-6.5061 Z-0.1203
X9.0155 Y-6.5058 Z-0.1173
X9.0158 Y-6.5057 Z-0.1143
G0 Z0.2
X9.5129 Y-6.4892
Z0.08
G1 Z0.0157 F30.
X9.5126 Z0.0127
X9.5117 Z0.0097
X9.5102 Z0.007
X9.5083 Y-6.4893 Z0.0046
X9.5059 Z0.0027
X9.5031 Z0.0012
X9.5002 Y-6.4894 Z0.0003
X9.4971 Z0.
X9.4892 Y-6.4895
G3 X9.4787 Y-6.5002 I0.0001 J-0.0106
X9.5213 Y-6.4998 Z-0.0197 I0.0213 J0.0002
X9.4787 Y-6.5002 Z-0.0394 I-0.0213 J-0.0002
X9.5213 Y-6.4998 Z-0.0591 I0.0213 J0.0002
X9.4787 Y-6.5002 Z-0.0787 I-0.0213 J-0.0002
X9.5213 Y-6.4998 Z-0.0984 I0.0213 J0.0002
X9.4787 Y-6.5002 Z-0.1181 I-0.0213 J-0.0002
X9.5071 Y-6.5201 Z-0.13 I0.0213 J0.0002
X9.4929 Y-6.4799 I-0.0071 J0.0201
X9.5071 Y-6.5201 I0.0071 J-0.0201
X9.5136 Y-6.5065 I-0.0035 J0.01
G1 X9.5109 Y-6.4991
X9.5099 Y-6.4962 Z-0.1297
X9.5089 Y-6.4934 Z-0.1288
X9.508 Y-6.4908 Z-0.1273
X9.5072 Y-6.4886 Z-0.1254
X9.5066 Y-6.4867 Z-0.123
X9.5061 Y-6.4853 Z-0.1203
X9.5058 Y-6.4845 Z-0.1173
X9.5057 Y-6.4842 Z-0.1143
G0 Z0.2
X10.0133 Y-6.4898
Z0.08
G1 Z0.0157 F30.
X10.013 Z0.0127
X10.0121 Z0.0097
X10.0107 Y-6.4897 Z0.007
X10.0087 Y-6.4896 Z0.0046
X10.0063 Z0.0027
X10.0036 Y-6.4895 Z0.0012
X10.0007 Y-6.4894 Z0.0003
X9.9976 Y-6.4893 Z0.
X9.9897 Y-6.489
G3 X9.9788 Y-6.4993 I-0.0003 J-0.0106
X10.0212 Y-6.5007 Z-0.0197 I0.0212 J-0.0007
X9.9788 Y-6.4993 Z-0.0394 I-0.0212 J0.0007
X10.0212 Y-6.5007 Z-0.0591 I0.0212 J-0.0007
X9.9788 Y-6.4993 Z-0.0787 I-0.0212 J0.0007
X10.0212 Y-6.5007 Z-0.0984 I0.0212 J-0.0007
X9.9788 Y-6.4993 Z-0.1181 I-0.0212 J0.0007
X10.0062 Y-6.5203 Z-0.13 I0.0212 J-0.0007
X9.9938 Y-6.4797 I-0.0062 J0.0203
X10.0062 Y-6.5203 I0.0062 J-0.0203
X10.0133 Y-6.5071 I-0.0031 J0.0102
G1 X10.011 Y-6.4995
X10.0101 Y-6.4966 Z-0.1297
X10.0092 Y-6.4938 Z-0.1288
X10.0084 Y-6.4912 Z-0.1273
X10.0077 Y-6.4889 Z-0.1254
X10.0072 Y-6.487 Z-0.123
X10.0067 Y-6.4856 Z-0.1203
X10.0065 Y-6.4848 Z-0.1173
X10.0064 Y-6.4845 Z-0.1143
G0 Z0.2
X10.0105 Y-7.0131
Z0.08
G1 Z0.0157 F30.
Y-7.0128 Z0.0127
Y-7.0119 Z0.0097
Y-7.0105 Z0.007
Y-7.0085 Z0.0046
X10.0106 Y-7.0061 Z0.0027
Y-7.0034 Z0.0012
Y-7.0004 Z0.0003
X10.0107 Y-6.9974 Z0.
X10.0108 Y-6.9895
G3 X10.0003 Y-6.9787 I-0.0106 J0.0001
X9.9997 Y-7.0213 Z-0.0197 I-0.0003 J-0.0213
X10.0003 Y-6.9787 Z-0.0394 I0.0003 J0.0213
X9.9997 Y-7.0213 Z-0.0591 I-0.0003 J-0.0213
X10.0003 Y-6.9787 Z-0.0787 I0.0003 J0.0213
X9.9997 Y-7.0213 Z-0.0984 I-0.0003 J-0.0213
X10.0003 Y-6.9787 Z-0.1181 I0.0003 J0.0213
X9.9798 Y-7.0066 Z-0.13 I-0.0003 J-0.0213
X10.0202 Y-6.9934 I0.0202 J0.0066
X9.9798 Y-7.0066 I-0.0202 J-0.0066
X9.9932 Y-7.0134 I0.0101 J0.0033
G1 X10.0007 Y-7.011
X10.0036 Y-7.01 Z-0.1297
X10.0064 Y-7.0091 Z-0.1288
X10.009 Y-7.0083 Z-0.1273
X10.0113 Y-7.0075 Z-0.1254
X10.0131 Y-7.0069 Z-0.123
X10.0145 Y-7.0065 Z-0.1203
X10.0154 Y-7.0062 Z-0.1173
X10.0156 Y-7.0061 Z-0.1143
G0 Z0.2
X9.4869 Y-7.0105
Z0.08
G1 Z0.0157 F30.
X9.4872 Z0.0127
X9.4881 Z0.0097
X9.4895 Z0.007
X9.4915 Z0.0046
X9.4939 Y-7.0106 Z0.0027
X9.4966 Z0.0012
X9.4996 Z0.0003
X9.5026 Y-7.0107 Z0.
X9.5105 Y-7.0108
G3 X9.5213 Y-7.0003 I0.0001 J0.0106
X9.4787 Y-6.9997 Z-0.0197 I-0.0213 J0.0003
X9.5213 Y-7.0003 Z-0.0394 I0.0213 J-0.0003
X9.4787 Y-6.9997 Z-0.0591 I-0.0213 J0.0003
X9.5213 Y-7.0003 Z-0.0787 I0.0213 J-0.0003
X9.4787 Y-6.9997 Z-0.0984 I-0.0213 J0.0003
X9.5213 Y-7.0003 Z-0.1181 I0.0213 J-0.0003
X9.4934 Y-6.9798 Z-0.13 I-0.0213 J0.0003
X9.5066 Y-7.0202 I0.0066 J-0.0202
X9.4934 Y-6.9798 I-0.0066 J0.0202
X9.4866 Y-6.9932 I0.0033 J-0.0101
G1 X9.489 Y-7.0007
X9.49 Y-7.0036 Z-0.1297
X9.4909 Y-7.0064 Z-0.1288
X9.4917 Y-7.009 Z-0.1273
X9.4925 Y-7.0113 Z-0.1254
X9.4931 Y-7.0131 Z-0.123
X9.4935 Y-7.0145 Z-0.1203
X9.4938 Y-7.0154 Z-0.1173
X9.4939 Y-7.0156 Z-0.1143
G0 Z0.2
X8.9867 Y-7.0102
Z0.08
G1 Z0.0157 F30.
X8.987 Z0.0127
X8.9879 Y-7.0103 Z0.0097
X8.9893 Z0.007
X8.9913 Y-7.0104 Z0.0046
X8.9937 Z0.0027
X8.9964 Y-7.0105 Z0.0012
X8.9993 Y-7.0106 Z0.0003
X9.0024 Y-7.0107 Z0.
X9.0103 Y-7.011
G3 X9.0212 Y-7.0007 I0.0003 J0.0106
X8.9788 Y-6.9993 Z-0.0197 I-0.0212 J0.0007
X9.0212 Y-7.0007 Z-0.0394 I0.0212 J-0.0007
X8.9788 Y-6.9993 Z-0.0591 I-0.0212 J0.0007
X9.0212 Y-7.0007 Z-0.0787 I0.0212 J-0.0007
X8.9788 Y-6.9993 Z-0.0984 I-0.0212 J0.0007
X9.0212 Y-7.0007 Z-0.1181 I0.0212 J-0.0007
X8.9938 Y-6.9797 Z-0.13 I-0.0212 J0.0007
X9.0062 Y-7.0203 I0.0062 J-0.0203
X8.9938 Y-6.9797 I-0.0062 J0.0203
X8.9867 Y-6.9929 I0.0031 J-0.0102
G1 X8.989 Y-7.0005
X8.9899 Y-7.0034 Z-0.1297
X8.9908 Y-7.0062 Z-0.1288
X8.9916 Y-7.0088 Z-0.1273
X8.9923 Y-7.0111 Z-0.1254
X8.9928 Y-7.013 Z-0.123
X8.9933 Y-7.0144 Z-0.1203
X8.9935 Y-7.0152 Z-0.1173
X8.9936 Y-7.0155 Z-0.1143
G0 Z0.2
X10.0163 Y-7.4961
Z0.08
G1 Z0.0157 F30.
X10.016 Y-7.4959 Z0.0127
X10.0152 Y-7.4955 Z0.0097
X10.0139 Y-7.4949 Z0.007
X10.0122 Y-7.4941 Z0.0046
X10.01 Y-7.493 Z0.0027
X10.0076 Y-7.4918 Z0.0012
X10.0049 Y-7.4906 Z0.0003
X10.0021 Y-7.4892 Z0.
X9.995 Y-7.4858
G3 X9.9808 Y-7.4908 I-0.0046 J-0.0096
X10.0192 Y-7.5092 Z-0.0197 I0.0192 J-0.0092
X9.9808 Y-7.4908 Z-0.0394 I-0.0192 J0.0092
X10.0192 Y-7.5092 Z-0.0591 I0.0192 J-0.0092
X9.9808 Y-7.4908 Z-0.0787 I-0.0192 J0.0092
X10.0192 Y-7.5092 Z-0.0984 I0.0192 J-0.0092
X9.9808 Y-7.4908 Z-0.1181 I-0.0192 J0.0092
X9.9974 Y-7.5211 Z-0.13 I0.0192 J-0.0092
X10.0026 Y-7.4789 I0.0026 J0.0211
X9.9974 Y-7.5211 I-0.0026 J-0.0211
X10.0093 Y-7.5118 I0.0013 J0.0106
G1 X10.0102 Y-7.504
X10.0106 Y-7.501 Z-0.1297
X10.0109 Y-7.498 Z-0.1288
X10.0113 Y-7.4953 Z-0.1273
X10.0116 Y-7.493 Z-0.1254
X10.0118 Y-7.491 Z-0.123
X10.012 Y-7.4896 Z-0.1203
X10.0121 Y-7.4887 Z-0.1173
Y-7.4884 Z-0.1143
G0 Z0.2
X9.4873 Y-7.5109
Z0.08
G1 Z0.0157 F30.
X9.4876 Z0.0127
X9.4885 Z0.0097
X9.4899 Z0.007
X9.4919 Y-7.5108 Z0.0046
X9.4942 Z0.0027
X9.497 Y-7.5107 Z0.0012
X9.4999 Y-7.5106 Z0.0003
X9.503 Z0.
X9.5109 Y-7.5104
G3 X9.5213 Y-7.4995 I-0.0002 J0.0106
X9.4787 Y-7.5005 Z-0.0197 I-0.0213 J-0.0005
X9.5213 Y-7.4995 Z-0.0394 I0.0213 J0.0005
X9.4787 Y-7.5005 Z-0.0591 I-0.0213 J-0.0005
X9.5213 Y-7.4995 Z-0.0787 I0.0213 J0.0005
X9.4787 Y-7.5005 Z-0.0984 I-0.0213 J-0.0005
X9.5213 Y-7.4995 Z-0.1181 I0.0213 J0.0005
X9.4927 Y-7.48 Z-0.13 I-0.0213 J-0.0005
X9.5073 Y-7.52 I0.0073 J-0.02
X9.4927 Y-7.48 I-0.0073 J0.02
X9.4864 Y-7.4937 I0.0036 J-0.01
G1 X9.4891 Y-7.501
X9.4901 Y-7.5039 Z-0.1297
X9.4911 Y-7.5067 Z-0.1288
X9.4921 Y-7.5093 Z-0.1273
X9.4929 Y-7.5115 Z-0.1254
X9.4936 Y-7.5134 Z-0.123
X9.494 Y-7.5147 Z-0.1203
X9.4944 Y-7.5156 Z-0.1173
X9.4945 Y-7.5158 Z-0.1143
G0 Z0.2
X8.9867 Y-7.5102
Z0.08
G1 Z0.0157 F30.
X8.987 Z0.0127
X8.9879 Z0.0097
X8.9893 Y-7.5103 Z0.007
X8.9913 Y-7.5104 Z0.0046
X8.9937 Z0.0027
X8.9964 Y-7.5105 Z0.0012
X8.9993 Y-7.5106 Z0.0003
X9.0024 Y-7.5107 Z0.
X9.0103 Y-7.511
G3 X9.0212 Y-7.5007 I0.0003 J0.0106
X8.9788 Y-7.4993 Z-0.0197 I-0.0212 J0.0007
X9.0212 Y-7.5007 Z-0.0394 I0.0212 J-0.0007
X8.9788 Y-7.4993 Z-0.0591 I-0.0212 J0.0007
X9.0212 Y-7.5007 Z-0.0787 I0.0212 J-0.0007
X8.9788 Y-7.4993 Z-0.0984 I-0.0212 J0.0007
X9.0212 Y-7.5007 Z-0.1181 I0.0212 J-0.0007
X8.9938 Y-7.4797 Z-0.13 I-0.0212 J0.0007
X9.0062 Y-7.5203 I0.0062 J-0.0203
X8.9938 Y-7.4797 I-0.0062 J0.0203
X8.9867 Y-7.4929 I0.0031 J-0.0102
G1 X8.989 Y-7.5005
X8.9899 Y-7.5034 Z-0.1297
X8.9908 Y-7.5062 Z-0.1288
X8.9916 Y-7.5088 Z-0.1273
X8.9923 Y-7.5111 Z-0.1254
X8.9928 Y-7.513 Z-0.123
X8.9933 Y-7.5144 Z-0.1203
X8.9935 Y-7.5152 Z-0.1173
X8.9936 Y-7.5155 Z-0.1143
G0 Z0.2
X9.0108 Y-8.0129
Z0.08
G1 Z0.0157 F30.
Y-8.0125 Z0.0127
Y-8.0117 Z0.0097
Y-8.0102 Z0.007
X9.0107 Y-8.0082 Z0.0046
Y-8.0059 Z0.0027
Y-8.0031 Z0.0012
X9.0106 Y-8.0002 Z0.0003
Y-7.9971 Z0.
X9.0105 Y-7.9892
G3 X8.9997 Y-7.9787 I-0.0106 J-0.0001
X9.0003 Y-8.0213 Z-0.0197 I0.0003 J-0.0213
X9.0181 Y-8.0111 Z-0.026 I-0.0003 J0.0213
X8.9819 Y-7.9889 Z-0.0457 I-0.0181 J0.0111
X9.0181 Y-8.0111 Z-0.0654 I0.0181 J-0.0111
X8.9819 Y-7.9889 Z-0.0851 I-0.0181 J0.0111
X9.0181 Y-8.0111 Z-0.1047 I0.0181 J-0.0111
X8.9819 Y-7.9889 Z-0.1244 I-0.0181 J0.0111
X8.98 Y-8.0071 Z-0.13 I0.0181 J-0.0111
X9.02 Y-7.9929 I0.02 J0.0071
X8.98 Y-8.0071 I-0.02 J-0.0071
X8.9935 Y-8.0136 I0.01 J0.0035
G1 X9.0009 Y-8.0109
X9.0038 Y-8.0099 Z-0.1297
X9.0066 Y-8.0089 Z-0.1288
X9.0092 Y-8.008 Z-0.1273
X9.0114 Y-8.0072 Z-0.1254
X9.0133 Y-8.0066 Z-0.123
X9.0147 Y-8.0061 Z-0.1203
X9.0155 Y-8.0058 Z-0.1173
X9.0158 Y-8.0057 Z-0.1143
G0 Z0.2
X9.5129 Y-7.9892
Z0.08
G1 Z0.0157 F30.
X9.5126 Z0.0127
X9.5117 Z0.0097
X9.5102 Z0.007
X9.5083 Y-7.9893 Z0.0046
X9.5059 Z0.0027
X9.5031 Z0.0012
X9.5002 Y-7.9894 Z0.0003
X9.4971 Z0.
X9.4892 Y-7.9895
G3 X9.4787 Y-8.0002 I0.0001 J-0.0106
X9.5213 Y-7.9997 Z-0.0197 I0.0213 J0.0002
X9.4787 Y-8.0002 Z-0.0394 I-0.0213 J-0.0002
X9.5213 Y-7.9997 Z-0.0591 I0.0213 J0.0002
X9.4787 Y-8.0002 Z-0.0787 I-0.0213 J-0.0002
X9.5213 Y-7.9997 Z-0.0984 I0.0213 J0.0002
X9.4787 Y-8.0002 Z-0.1181 I-0.0213 J-0.0002
X9.5071 Y-8.0201 Z-0.13 I0.0213 J0.0002
X9.4929 Y-7.9799 I-0.0071 J0.0201
X9.5071 Y-8.0201 I0.0071 J-0.0201
X9.5136 Y-8.0065 I-0.0035 J0.01
G1 X9.5109 Y-7.9991
X9.5099 Y-7.9962 Z-0.1297
X9.5089 Y-7.9934 Z-0.1288
X9.508 Y-7.9908 Z-0.1273
X9.5072 Y-7.9886 Z-0.1254
X9.5066 Y-7.9867 Z-0.123
X9.5061 Y-7.9853 Z-0.1203
X9.5058 Y-7.9845 Z-0.1173
X9.5057 Y-7.9842 Z-0.1143
G0 Z0.2
X10.0133 Y-7.9898
Z0.08
G1 Z0.0157 F30.
X10.013 Z0.0127
X10.0121 Z0.0097
X10.0107 Y-7.9897 Z0.007
X10.0087 Y-7.9896 Z0.0046
X10.0063 Z0.0027
X10.0036 Y-7.9895 Z0.0012
X10.0007 Y-7.9894 Z0.0003
X9.9976 Y-7.9893 Z0.
X9.9897 Y-7.989
G3 X9.9788 Y-7.9993 I-0.0003 J-0.0106
X10.0212 Y-8.0007 Z-0.0197 I0.0212 J-0.0007
X9.9788 Y-7.9993 Z-0.0394 I-0.0212 J0.0007
X10.0212 Y-8.0007 Z-0.0591 I0.0212 J-0.0007
X9.9788 Y-7.9993 Z-0.0787 I-0.0212 J0.0007
X10.0212 Y-8.0007 Z-0.0984 I0.0212 J-0.0007
X9.9788 Y-7.9993 Z-0.1181 I-0.0212 J0.0007
X10.0062 Y-8.0203 Z-0.13 I0.0212 J-0.0007
X9.9938 Y-7.9797 I-0.0062 J0.0203
X10.0062 Y-8.0203 I0.0062 J-0.0203
X10.0133 Y-8.0071 I-0.0031 J0.0102
G1 X10.011 Y-7.9995
X10.0101 Y-7.9966 Z-0.1297
X10.0092 Y-7.9938 Z-0.1288
X10.0084 Y-7.9912 Z-0.1273
X10.0077 Y-7.9889 Z-0.1254
X10.0072 Y-7.987 Z-0.123
X10.0067 Y-7.9856 Z-0.1203
X10.0065 Y-7.9848 Z-0.1173
X10.0064 Y-7.9845 Z-0.1143
G0 Z0.2
X10.0105 Y-8.5131
Z0.08
G1 Z0.0157 F30.
Y-8.5128 Z0.0127
Y-8.5119 Z0.0097
Y-8.5105 Z0.007
Y-8.5085 Z0.0046
X10.0106 Y-8.5061 Z0.0027
Y-8.5034 Z0.0012
Y-8.5004 Z0.0003
X10.0107 Y-8.4974 Z0.
X10.0108 Y-8.4895
G3 X10.0003 Y-8.4787 I-0.0106 J0.0001
X9.9997 Y-8.5213 Z-0.0197 I-0.0003 J-0.0213
X10.0003 Y-8.4787 Z-0.0394 I0.0003 J0.0213
X9.9997 Y-8.5213 Z-0.0591 I-0.0003 J-0.0213
X10.0003 Y-8.4787 Z-0.0787 I0.0003 J0.0213
X9.9997 Y-8.5213 Z-0.0984 I-0.0003 J-0.0213
X10.0003 Y-8.4787 Z-0.1181 I0.0003 J0.0213
X9.9798 Y-8.5066 Z-0.13 I-0.0003 J-0.0213
X10.0202 Y-8.4934 I0.0202 J0.0066
X9.9798 Y-8.5066 I-0.0202 J-0.0066
X9.9932 Y-8.5134 I0.0101 J0.0033
G1 X10.0007 Y-8.511
X10.0036 Y-8.51 Z-0.1297
X10.0064 Y-8.5091 Z-0.1288
X10.009 Y-8.5083 Z-0.1273
X10.0113 Y-8.5075 Z-0.1254
X10.0131 Y-8.5069 Z-0.123
X10.0145 Y-8.5065 Z-0.1203
X10.0154 Y-8.5062 Z-0.1173
X10.0156 Y-8.5061 Z-0.1143
G0 Z0.2
X9.4869 Y-8.5105
Z0.08
G1 Z0.0157 F30.
X9.4872 Z0.0127
X9.4881 Z0.0097
X9.4895 Z0.007
X9.4915 Z0.0046
X9.4939 Y-8.5106 Z0.0027
X9.4966 Z0.0012
X9.4996 Z0.0003
X9.5026 Y-8.5107 Z0.
X9.5105 Y-8.5108
G3 X9.5213 Y-8.5003 I0.0001 J0.0106
X9.4787 Y-8.4997 Z-0.0197 I-0.0213 J0.0003
X9.5213 Y-8.5003 Z-0.0394 I0.0213 J-0.0003
X9.4911 Y-8.4807 Z-0.052 I-0.0213 J0.0003
X9.5089 Y-8.5193 Z-0.0717 I0.0089 J-0.0193
X9.5211 Y-8.5028 Z-0.078 I-0.0089 J0.0193
X9.4789 Y-8.4972 Z-0.0977 I-0.0211 J0.0028
X9.5211 Y-8.5028 Z-0.1174 I0.0211 J-0.0028
X9.4934 Y-8.4798 Z-0.13 I-0.0211 J0.0028
X9.5066 Y-8.5202 I0.0066 J-0.0202
X9.4934 Y-8.4798 I-0.0066 J0.0202
X9.4866 Y-8.4932 I0.0033 J-0.0101
G1 X9.489 Y-8.5007
X9.49 Y-8.5036 Z-0.1297
X9.4909 Y-8.5064 Z-0.1288
X9.4917 Y-8.509 Z-0.1273
X9.4925 Y-8.5113 Z-0.1254
X9.4931 Y-8.5131 Z-0.123
X9.4935 Y-8.5145 Z-0.1203
X9.4938 Y-8.5154 Z-0.1173
X9.4939 Y-8.5156 Z-0.1143
G0 Z0.2
X8.9867 Y-8.5102
Z0.08
G1 Z0.0157 F30.
X8.987 Z0.0127
X8.9879 Y-8.5103 Z0.0097
X8.9893 Z0.007
X8.9913 Y-8.5104 Z0.0046
X8.9937 Z0.0027
X8.9964 Y-8.5105 Z0.0012
X8.9993 Y-8.5106 Z0.0003
X9.0024 Y-8.5107 Z0.
X9.0103 Y-8.511
G3 X9.0212 Y-8.5007 I0.0003 J0.0106
X8.9788 Y-8.4993 Z-0.0197 I-0.0212 J0.0007
X9.0212 Y-8.5007 Z-0.0394 I0.0212 J-0.0007
X8.9788 Y-8.4993 Z-0.0591 I-0.0212 J0.0007
X9.0212 Y-8.5007 Z-0.0787 I0.0212 J-0.0007
X8.9788 Y-8.4993 Z-0.0984 I-0.0212 J0.0007
X9.0212 Y-8.5007 Z-0.1181 I0.0212 J-0.0007
X8.9938 Y-8.4797 Z-0.13 I-0.0212 J0.0007
X9.0062 Y-8.5203 I0.0062 J-0.0203
X8.9938 Y-8.4797 I-0.0062 J0.0203
X8.9867 Y-8.4929 I0.0031 J-0.0102
G1 X8.989 Y-8.5005
X8.9899 Y-8.5034 Z-0.1297
X8.9908 Y-8.5062 Z-0.1288
X8.9916 Y-8.5088 Z-0.1273
X8.9923 Y-8.5111 Z-0.1254
X8.9928 Y-8.513 Z-0.123
X8.9933 Y-8.5144 Z-0.1203
X8.9935 Y-8.5152 Z-0.1173
X8.9936 Y-8.5155 Z-0.1143
G0 Z0.2
X6.4869 Y-8.5105
Z0.08
G1 Z0.0157 F30.
X6.4872 Y-8.5106 Z0.0127
X6.4881 Z0.0097
X6.4896 Z0.007
X6.4916 Z0.0046
X6.4939 Z0.0027
X6.4967 Z0.0012
X6.4996 Z0.0003
X6.5027 Z0.
X6.5106 Y-8.5107
G3 X6.5213 Y-8.5001 I0.0001 J0.0106
X6.4787 Y-8.4999 Z-0.0197 I-0.0213 J0.0001
X6.5213 Y-8.5001 Z-0.0394 I0.0213 J-0.0001
X6.4787 Y-8.4999 Z-0.0591 I-0.0213 J0.0001
X6.5213 Y-8.5001 Z-0.0787 I0.0213 J-0.0001
X6.4787 Y-8.4999 Z-0.0984 I-0.0213 J0.0001
X6.5213 Y-8.5001 Z-0.1181 I0.0213 J-0.0001
X6.4933 Y-8.4798 Z-0.13 I-0.0213 J0.0001
X6.5067 Y-8.5202 I0.0067 J-0.0202
X6.4933 Y-8.4798 I-0.0067 J0.0202
X6.4866 Y-8.4933 I0.0033 J-0.0101
G1 X6.489 Y-8.5007
X6.49 Y-8.5036 Z-0.1297
X6.4909 Y-8.5065 Z-0.1288
X6.4918 Y-8.509 Z-0.1273
X6.4926 Y-8.5113 Z-0.1254
X6.4932 Y-8.5132 Z-0.123
X6.4936 Y-8.5145 Z-0.1203
X6.4939 Y-8.5154 Z-0.1173
X6.494 Y-8.5157 Z-0.1143
G0 Z0.2
X4.4869 Y-8.5105
Z0.08
G1 Z0.0157 F30.
X4.4872 Z0.0127
X4.4881 Z0.0097
X4.4896 Z0.007
X4.4915 Y-8.5106 Z0.0046
X4.4939 Z0.0027
X4.4966 Z0.0012
X4.4996 Z0.0003
X4.5027 Y-8.5107 Z0.
X4.5105
G3 X4.5213 Y-8.5002 I0.0001 J0.0106
X4.4787 Y-8.4998 Z-0.0197 I-0.0213 J0.0002
X4.5213 Y-8.5002 Z-0.0394 I0.0213 J-0.0002
X4.4787 Y-8.4998 Z-0.0591 I-0.0213 J0.0002
X4.5213 Y-8.5002 Z-0.0787 I0.0213 J-0.0002
X4.4787 Y-8.4998 Z-0.0984 I-0.0213 J0.0002
X4.5213 Y-8.5002 Z-0.1181 I0.0213 J-0.0002
X4.4933 Y-8.4798 Z-0.13 I-0.0213 J0.0002
X4.5067 Y-8.5202 I0.0067 J-0.0202
X4.4933 Y-8.4798 I-0.0067 J0.0202
X4.4866 Y-8.4932 I0.0033 J-0.0101
G1 X4.489 Y-8.5007
X4.49 Y-8.5036 Z-0.1297
X4.4909 Y-8.5064 Z-0.1288
X4.4918 Y-8.509 Z-0.1273
X4.4925 Y-8.5113 Z-0.1254
X4.4931 Y-8.5131 Z-0.123
X4.4936 Y-8.5145 Z-0.1203
X4.4939 Y-8.5154 Z-0.1173
X4.494 Y-8.5157 Z-0.1143
G0 Z0.2
X2.4869 Y-8.5105
Z0.08
G1 Z0.0157 F30.
X2.4872 Z0.0127
X2.4881 Z0.0097
X2.4896 Z0.007
X2.4915 Y-8.5106 Z0.0046
X2.4939 Z0.0027
X2.4966 Z0.0012
X2.4996 Z0.0003
X2.5027 Y-8.5107 Z0.
X2.5105
G3 X2.5213 Y-8.5002 I0.0001 J0.0106
X2.4787 Y-8.4998 Z-0.0197 I-0.0213 J0.0002
X2.5213 Y-8.5002 Z-0.0394 I0.0213 J-0.0002
X2.4787 Y-8.4998 Z-0.0591 I-0.0213 J0.0002
X2.5213 Y-8.5002 Z-0.0787 I0.0213 J-0.0002
X2.4787 Y-8.4998 Z-0.0984 I-0.0213 J0.0002
X2.5213 Y-8.5002 Z-0.1181 I0.0213 J-0.0002
X2.4933 Y-8.4798 Z-0.13 I-0.0213 J0.0002
X2.5067 Y-8.5202 I0.0067 J-0.0202
X2.4933 Y-8.4798 I-0.0067 J0.0202
X2.4866 Y-8.4932 I0.0033 J-0.0101
G1 X2.489 Y-8.5007
X2.49 Y-8.5036 Z-0.1297
X2.4909 Y-8.5064 Z-0.1288
X2.4918 Y-8.509 Z-0.1273
X2.4925 Y-8.5113 Z-0.1254
X2.4931 Y-8.5131 Z-0.123
X2.4936 Y-8.5145 Z-0.1203
X2.4939 Y-8.5154 Z-0.1173
X2.494 Y-8.5157 Z-0.1143
G0 Z0.2
X0.4869 Y-8.5105
Z0.08
G1 Z0.0157 F30.
X0.4872 Z0.0127
X0.4881 Z0.0097
X0.4896 Z0.007
X0.4915 Y-8.5106 Z0.0046
X0.4939 Z0.0027
X0.4966 Z0.0012
X0.4996 Z0.0003
X0.5027 Y-8.5107 Z0.
X0.5105
G3 X0.5213 Y-8.5002 I0.0001 J0.0106
X0.4787 Y-8.4998 Z-0.0197 I-0.0213 J0.0002
X0.5213 Y-8.5002 Z-0.0394 I0.0213 J-0.0002
X0.4787 Y-8.4998 Z-0.0591 I-0.0213 J0.0002
X0.5213 Y-8.5002 Z-0.0787 I0.0213 J-0.0002
X0.4787 Y-8.4998 Z-0.0984 I-0.0213 J0.0002
X0.5213 Y-8.5002 Z-0.1181 I0.0213 J-0.0002
X0.4933 Y-8.4798 Z-0.13 I-0.0213 J0.0002
X0.5067 Y-8.5202 I0.0067 J-0.0202
X0.4933 Y-8.4798 I-0.0067 J0.0202
X0.4866 Y-8.4932 I0.0033 J-0.0101
G1 X0.489 Y-8.5007
X0.49 Y-8.5036 Z-0.1297
X0.4909 Y-8.5064 Z-0.1288
X0.4918 Y-8.509 Z-0.1273
X0.4925 Y-8.5113 Z-0.1254
X0.4931 Y-8.5131 Z-0.123
X0.4936 Y-8.5145 Z-0.1203
X0.4939 Y-8.5154 Z-0.1173
X0.494 Y-8.5157 Z-0.1143
G0 Z0.2
X0.4895 Y-7.9869
Z0.08
G1 Z0.0157 F30.
Y-7.9872 Z0.0127
Y-7.9881 Z0.0097
Y-7.9895 Z0.007
Y-7.9915 Z0.0046
X0.4894 Y-7.9939 Z0.0027
Y-7.9966 Z0.0012
Y-7.9996 Z0.0003
X0.4893 Y-8.0026 Z0.
X0.4892 Y-8.0105
G3 X0.4998 Y-8.0213 I0.0106 J-0.0001
X0.5002 Y-7.9787 Z-0.0197 I0.0002 J0.0213
X0.4998 Y-8.0213 Z-0.0394 I-0.0002 J-0.0213
X0.5002 Y-7.9787 Z-0.0591 I0.0002 J0.0213
X0.4998 Y-8.0213 Z-0.0787 I-0.0002 J-0.0213
X0.5002 Y-7.9787 Z-0.0984 I0.0002 J0.0213
X0.4998 Y-8.0213 Z-0.1181 I-0.0002 J-0.0213
X0.5202 Y-7.9934 Z-0.13 I0.0002 J0.0213
X0.4798 Y-8.0066 I-0.0202 J-0.0066
X0.5202 Y-7.9934 I0.0202 J0.0066
X0.5068 Y-7.9866 I-0.0101 J-0.0033
G1 X0.4993 Y-7.989
X0.4964 Y-7.99 Z-0.1297
X0.4936 Y-7.9909 Z-0.1288
X0.491 Y-7.9918 Z-0.1273
X0.4887 Y-7.9925 Z-0.1254
X0.4869 Y-7.9931 Z-0.123
X0.4855 Y-7.9935 Z-0.1203
X0.4846 Y-7.9938 Z-0.1173
X0.4844 Y-7.9939 Z-0.1143
G0 Z0.2
X0.4898 Y-7.4867
Z0.08
G1 Z0.0157 F30.
Y-7.487 Z0.0127
X0.4897 Y-7.4879 Z0.0097
Y-7.4893 Z0.007
X0.4896 Y-7.4913 Z0.0046
Y-7.4937 Z0.0027
X0.4895 Y-7.4964 Z0.0012
X0.4894 Y-7.4993 Z0.0003
X0.4893 Y-7.5024 Z0.
X0.489 Y-7.5103
G3 X0.4993 Y-7.5212 I0.0106 J-0.0003
X0.5007 Y-7.4788 Z-0.0197 I0.0007 J0.0212
X0.4993 Y-7.5212 Z-0.0394 I-0.0007 J-0.0212
X0.5007 Y-7.4788 Z-0.0591 I0.0007 J0.0212
X0.4993 Y-7.5212 Z-0.0787 I-0.0007 J-0.0212
X0.5007 Y-7.4788 Z-0.0984 I0.0007 J0.0212
X0.4993 Y-7.5212 Z-0.1181 I-0.0007 J-0.0212
X0.5203 Y-7.4938 Z-0.13 I0.0007 J0.0212
X0.4797 Y-7.5062 I-0.0203 J-0.0062
X0.5203 Y-7.4938 I0.0203 J0.0062
X0.5071 Y-7.4867 I-0.0102 J-0.0031
G1 X0.4995 Y-7.489
X0.4966 Y-7.4899 Z-0.1297
X0.4938 Y-7.4908 Z-0.1288
X0.4912 Y-7.4916 Z-0.1273
X0.4889 Y-7.4923 Z-0.1254
X0.487 Y-7.4928 Z-0.123
X0.4856 Y-7.4933 Z-0.1203
X0.4848 Y-7.4935 Z-0.1173
X0.4845 Y-7.4936 Z-0.1143
G0 Z0.2
X0.4898 Y-6.9867
Z0.08
G1 Z0.0157 F30.
Y-6.987 Z0.0127
X0.4897 Y-6.9879 Z0.0097
Y-6.9893 Z0.007
X0.4896 Y-6.9913 Z0.0046
Y-6.9937 Z0.0027
X0.4895 Y-6.9964 Z0.0012
X0.4894 Y-6.9993 Z0.0003
X0.4893 Y-7.0024 Z0.
X0.489 Y-7.0103
G3 X0.4993 Y-7.0212 I0.0106 J-0.0003
X0.5007 Y-6.9788 Z-0.0197 I0.0007 J0.0212
X0.4993 Y-7.0212 Z-0.0394 I-0.0007 J-0.0212
X0.5007 Y-6.9788 Z-0.0591 I0.0007 J0.0212
X0.4993 Y-7.0212 Z-0.0787 I-0.0007 J-0.0212
X0.5007 Y-6.9788 Z-0.0984 I0.0007 J0.0212
X0.4993 Y-7.0212 Z-0.1181 I-0.0007 J-0.0212
X0.5203 Y-6.9938 Z-0.13 I0.0007 J0.0212
X0.4797 Y-7.0062 I-0.0203 J-0.0062
X0.5203 Y-6.9938 I0.0203 J0.0062
X0.5071 Y-6.9867 I-0.0102 J-0.0031
G1 X0.4995 Y-6.989
X0.4966 Y-6.9899 Z-0.1297
X0.4938 Y-6.9908 Z-0.1288
X0.4912 Y-6.9916 Z-0.1273
X0.4889 Y-6.9923 Z-0.1254
X0.487 Y-6.9928 Z-0.123
X0.4856 Y-6.9933 Z-0.1203
X0.4848 Y-6.9935 Z-0.1173
X0.4845 Y-6.9936 Z-0.1143
G0 Z0.2
X0.4898 Y-6.4867
Z0.08
G1 Z0.0157 F30.
Y-6.487 Z0.0127
X0.4897 Y-6.4879 Z0.0097
Y-6.4893 Z0.007
X0.4896 Y-6.4913 Z0.0046
Y-6.4937 Z0.0027
X0.4895 Y-6.4964 Z0.0012
X0.4894 Y-6.4993 Z0.0003
X0.4893 Y-6.5024 Z0.
X0.489 Y-6.5103
G3 X0.4993 Y-6.5212 I0.0106 J-0.0003
X0.5007 Y-6.4788 Z-0.0197 I0.0007 J0.0212
X0.4993 Y-6.5212 Z-0.0394 I-0.0007 J-0.0212
X0.5007 Y-6.4788 Z-0.0591 I0.0007 J0.0212
X0.4993 Y-6.5212 Z-0.0787 I-0.0007 J-0.0212
X0.5007 Y-6.4788 Z-0.0984 I0.0007 J0.0212
X0.4993 Y-6.5212 Z-0.1181 I-0.0007 J-0.0212
X0.5203 Y-6.4938 Z-0.13 I0.0007 J0.0212
X0.4797 Y-6.5062 I-0.0203 J-0.0062
X0.5203 Y-6.4938 I0.0203 J0.0062
X0.5071 Y-6.4867 I-0.0102 J-0.0031
G1 X0.4995 Y-6.489
X0.4966 Y-6.4899 Z-0.1297
X0.4938 Y-6.4908 Z-0.1288
X0.4912 Y-6.4916 Z-0.1273
X0.4889 Y-6.4923 Z-0.1254
X0.487 Y-6.4928 Z-0.123
X0.4856 Y-6.4933 Z-0.1203
X0.4848 Y-6.4935 Z-0.1173
X0.4845 Y-6.4936 Z-0.1143
G0 Z0.2
X0.4898 Y-5.9867
Z0.08
G1 Z0.0157 F30.
Y-5.987 Z0.0127
X0.4897 Y-5.9879 Z0.0097
Y-5.9893 Z0.007
X0.4896 Y-5.9913 Z0.0046
Y-5.9937 Z0.0027
X0.4895 Y-5.9964 Z0.0012
X0.4894 Y-5.9993 Z0.0003
X0.4893 Y-6.0024 Z0.
X0.489 Y-6.0103
G3 X0.4993 Y-6.0212 I0.0106 J-0.0003
X0.5007 Y-5.9788 Z-0.0197 I0.0007 J0.0212
X0.4993 Y-6.0212 Z-0.0394 I-0.0007 J-0.0212
X0.5007 Y-5.9788 Z-0.0591 I0.0007 J0.0212
X0.4993 Y-6.0212 Z-0.0787 I-0.0007 J-0.0212
X0.5007 Y-5.9788 Z-0.0984 I0.0007 J0.0212
X0.4993 Y-6.0212 Z-0.1181 I-0.0007 J-0.0212
X0.5203 Y-5.9938 Z-0.13 I0.0007 J0.0212
X0.4797 Y-6.0062 I-0.0203 J-0.0062
X0.5203 Y-5.9938 I0.0203 J0.0062
X0.5071 Y-5.9867 I-0.0102 J-0.0031
G1 X0.4995 Y-5.989
X0.4966 Y-5.9899 Z-0.1297
X0.4938 Y-5.9908 Z-0.1288
X0.4912 Y-5.9916 Z-0.1273
X0.4889 Y-5.9923 Z-0.1254
X0.487 Y-5.9928 Z-0.123
X0.4856 Y-5.9933 Z-0.1203
X0.4848 Y-5.9935 Z-0.1173
X0.4845 Y-5.9936 Z-0.1143
G0 Z0.2
X0.4898 Y-5.4867
Z0.08
G1 Z0.0157 F30.
Y-5.487 Z0.0127
X0.4897 Y-5.4879 Z0.0097
Y-5.4893 Z0.007
X0.4896 Y-5.4913 Z0.0046
Y-5.4937 Z0.0027
X0.4895 Y-5.4964 Z0.0012
X0.4894 Y-5.4993 Z0.0003
X0.4893 Y-5.5024 Z0.
X0.489 Y-5.5103
G3 X0.4993 Y-5.5212 I0.0106 J-0.0003
X0.5007 Y-5.4788 Z-0.0197 I0.0007 J0.0212
X0.4993 Y-5.5212 Z-0.0394 I-0.0007 J-0.0212
X0.5007 Y-5.4788 Z-0.0591 I0.0007 J0.0212
X0.4993 Y-5.5212 Z-0.0787 I-0.0007 J-0.0212
X0.5007 Y-5.4788 Z-0.0984 I0.0007 J0.0212
X0.4993 Y-5.5212 Z-0.1181 I-0.0007 J-0.0212
X0.5203 Y-5.4938 Z-0.13 I0.0007 J0.0212
X0.4797 Y-5.5062 I-0.0203 J-0.0062
X0.5203 Y-5.4938 I0.0203 J0.0062
X0.5071 Y-5.4867 I-0.0102 J-0.0031
G1 X0.4995 Y-5.489
X0.4966 Y-5.4899 Z-0.1297
X0.4938 Y-5.4908 Z-0.1288
X0.4912 Y-5.4916 Z-0.1273
X0.4889 Y-5.4923 Z-0.1254
X0.487 Y-5.4928 Z-0.123
X0.4856 Y-5.4933 Z-0.1203
X0.4848 Y-5.4935 Z-0.1173
X0.4845 Y-5.4936 Z-0.1143
G0 Z0.2
X0.4898 Y-4.9867
Z0.08
G1 Z0.0157 F30.
Y-4.987 Z0.0127
X0.4897 Y-4.9879 Z0.0097
Y-4.9893 Z0.007
X0.4896 Y-4.9913 Z0.0046
Y-4.9937 Z0.0027
X0.4895 Y-4.9964 Z0.0012
X0.4894 Y-4.9993 Z0.0003
X0.4893 Y-5.0024 Z0.
X0.489 Y-5.0103
G3 X0.4993 Y-5.0212 I0.0106 J-0.0003
X0.5007 Y-4.9788 Z-0.0197 I0.0007 J0.0212
X0.4993 Y-5.0212 Z-0.0394 I-0.0007 J-0.0212
X0.5007 Y-4.9788 Z-0.0591 I0.0007 J0.0212
X0.4993 Y-5.0212 Z-0.0787 I-0.0007 J-0.0212
X0.5007 Y-4.9788 Z-0.0984 I0.0007 J0.0212
X0.4993 Y-5.0212 Z-0.1181 I-0.0007 J-0.0212
X0.5203 Y-4.9938 Z-0.13 I0.0007 J0.0212
X0.4797 Y-5.0062 I-0.0203 J-0.0062
X0.5203 Y-4.9938 I0.0203 J0.0062
X0.5071 Y-4.9867 I-0.0102 J-0.0031
G1 X0.4995 Y-4.989
X0.4966 Y-4.9899 Z-0.1297
X0.4938 Y-4.9908 Z-0.1288
X0.4912 Y-4.9916 Z-0.1273
X0.4889 Y-4.9923 Z-0.1254
X0.487 Y-4.9928 Z-0.123
X0.4856 Y-4.9933 Z-0.1203
X0.4848 Y-4.9935 Z-0.1173
X0.4845 Y-4.9936 Z-0.1143
G0 Z0.2
X0.4898 Y-4.4867
Z0.08
G1 Z0.0157 F30.
Y-4.487 Z0.0127
X0.4897 Y-4.4879 Z0.0097
Y-4.4893 Z0.007
X0.4896 Y-4.4913 Z0.0046
Y-4.4937 Z0.0027
X0.4895 Y-4.4964 Z0.0012
X0.4894 Y-4.4993 Z0.0003
X0.4893 Y-4.5024 Z0.
X0.489 Y-4.5103
G3 X0.4993 Y-4.5212 I0.0106 J-0.0003
X0.5007 Y-4.4788 Z-0.0197 I0.0007 J0.0212
X0.4993 Y-4.5212 Z-0.0394 I-0.0007 J-0.0212
X0.5007 Y-4.4788 Z-0.0591 I0.0007 J0.0212
X0.4993 Y-4.5212 Z-0.0787 I-0.0007 J-0.0212
X0.5007 Y-4.4788 Z-0.0984 I0.0007 J0.0212
X0.4993 Y-4.5212 Z-0.1181 I-0.0007 J-0.0212
X0.5203 Y-4.4938 Z-0.13 I0.0007 J0.0212
X0.4797 Y-4.5062 I-0.0203 J-0.0062
X0.5203 Y-4.4938 I0.0203 J0.0062
X0.5071 Y-4.4867 I-0.0102 J-0.0031
G1 X0.4995 Y-4.489
X0.4966 Y-4.4899 Z-0.1297
X0.4938 Y-4.4908 Z-0.1288
X0.4912 Y-4.4916 Z-0.1273
X0.4889 Y-4.4923 Z-0.1254
X0.487 Y-4.4928 Z-0.123
X0.4856 Y-4.4933 Z-0.1203
X0.4848 Y-4.4935 Z-0.1173
X0.4845 Y-4.4936 Z-0.1143
G0 Z0.2
X0.4898 Y-3.9867
Z0.08
G1 Z0.0157 F30.
Y-3.987 Z0.0127
X0.4897 Y-3.9879 Z0.0097
Y-3.9893 Z0.007
X0.4896 Y-3.9913 Z0.0046
Y-3.9937 Z0.0027
X0.4895 Y-3.9964 Z0.0012
X0.4894 Y-3.9993 Z0.0003
X0.4893 Y-4.0024 Z0.
X0.489 Y-4.0103
G3 X0.4993 Y-4.0212 I0.0106 J-0.0003
X0.5007 Y-3.9788 Z-0.0197 I0.0007 J0.0212
X0.4993 Y-4.0212 Z-0.0394 I-0.0007 J-0.0212
X0.5007 Y-3.9788 Z-0.0591 I0.0007 J0.0212
X0.4993 Y-4.0212 Z-0.0787 I-0.0007 J-0.0212
X0.5007 Y-3.9788 Z-0.0984 I0.0007 J0.0212
X0.4993 Y-4.0212 Z-0.1181 I-0.0007 J-0.0212
X0.5203 Y-3.9938 Z-0.13 I0.0007 J0.0212
X0.4797 Y-4.0062 I-0.0203 J-0.0062
X0.5203 Y-3.9938 I0.0203 J0.0062
X0.5071 Y-3.9867 I-0.0102 J-0.0031
G1 X0.4995 Y-3.989
X0.4966 Y-3.9899 Z-0.1297
X0.4938 Y-3.9908 Z-0.1288
X0.4912 Y-3.9916 Z-0.1273
X0.4889 Y-3.9923 Z-0.1254
X0.487 Y-3.9928 Z-0.123
X0.4856 Y-3.9933 Z-0.1203
X0.4848 Y-3.9935 Z-0.1173
X0.4845 Y-3.9936 Z-0.1143
G0 Z0.2
X0.4898 Y-3.4867
Z0.08
G1 Z0.0157 F30.
Y-3.487 Z0.0127
X0.4897 Y-3.4879 Z0.0097
Y-3.4893 Z0.007
X0.4896 Y-3.4913 Z0.0046
Y-3.4937 Z0.0027
X0.4895 Y-3.4964 Z0.0012
X0.4894 Y-3.4993 Z0.0003
X0.4893 Y-3.5024 Z0.
X0.489 Y-3.5103
G3 X0.4993 Y-3.5212 I0.0106 J-0.0003
X0.5007 Y-3.4788 Z-0.0197 I0.0007 J0.0212
X0.4993 Y-3.5212 Z-0.0394 I-0.0007 J-0.0212
X0.5007 Y-3.4788 Z-0.0591 I0.0007 J0.0212
X0.4993 Y-3.5212 Z-0.0787 I-0.0007 J-0.0212
X0.5007 Y-3.4788 Z-0.0984 I0.0007 J0.0212
X0.4993 Y-3.5212 Z-0.1181 I-0.0007 J-0.0212
X0.5203 Y-3.4938 Z-0.13 I0.0007 J0.0212
X0.4797 Y-3.5062 I-0.0203 J-0.0062
X0.5203 Y-3.4938 I0.0203 J0.0062
X0.5071 Y-3.4867 I-0.0102 J-0.0031
G1 X0.4995 Y-3.489
X0.4966 Y-3.4899 Z-0.1297
X0.4938 Y-3.4908 Z-0.1288
X0.4912 Y-3.4916 Z-0.1273
X0.4889 Y-3.4923 Z-0.1254
X0.487 Y-3.4928 Z-0.123
X0.4856 Y-3.4933 Z-0.1203
X0.4848 Y-3.4935 Z-0.1173
X0.4845 Y-3.4936 Z-0.1143
G0 Z0.2
X0.4898 Y-2.9867
Z0.08
G1 Z0.0157 F30.
Y-2.987 Z0.0127
X0.4897 Y-2.9879 Z0.0097
Y-2.9893 Z0.007
X0.4896 Y-2.9913 Z0.0046
Y-2.9937 Z0.0027
X0.4895 Y-2.9964 Z0.0012
X0.4894 Y-2.9993 Z0.0003
X0.4893 Y-3.0024 Z0.
X0.489 Y-3.0103
G3 X0.4993 Y-3.0212 I0.0106 J-0.0003
X0.5007 Y-2.9788 Z-0.0197 I0.0007 J0.0212
X0.4993 Y-3.0212 Z-0.0394 I-0.0007 J-0.0212
X0.5007 Y-2.9788 Z-0.0591 I0.0007 J0.0212
X0.4993 Y-3.0212 Z-0.0787 I-0.0007 J-0.0212
X0.5007 Y-2.9788 Z-0.0984 I0.0007 J0.0212
X0.4993 Y-3.0212 Z-0.1181 I-0.0007 J-0.0212
X0.5203 Y-2.9938 Z-0.13 I0.0007 J0.0212
X0.4797 Y-3.0062 I-0.0203 J-0.0062
X0.5203 Y-2.9938 I0.0203 J0.0062
X0.5071 Y-2.9867 I-0.0102 J-0.0031
G1 X0.4995 Y-2.989
X0.4966 Y-2.9899 Z-0.1297
X0.4938 Y-2.9908 Z-0.1288
X0.4912 Y-2.9916 Z-0.1273
X0.4889 Y-2.9923 Z-0.1254
X0.487 Y-2.9928 Z-0.123
X0.4856 Y-2.9933 Z-0.1203
X0.4848 Y-2.9935 Z-0.1173
X0.4845 Y-2.9936 Z-0.1143
G0 Z0.2
X0.4898 Y-2.4867
Z0.08
G1 Z0.0157 F30.
Y-2.487 Z0.0127
X0.4897 Y-2.4879 Z0.0097
Y-2.4893 Z0.007
X0.4896 Y-2.4913 Z0.0046
Y-2.4937 Z0.0027
X0.4895 Y-2.4964 Z0.0012
X0.4894 Y-2.4993 Z0.0003
X0.4893 Y-2.5024 Z0.
X0.489 Y-2.5103
G3 X0.4993 Y-2.5212 I0.0106 J-0.0003
X0.5007 Y-2.4788 Z-0.0197 I0.0007 J0.0212
X0.4993 Y-2.5212 Z-0.0394 I-0.0007 J-0.0212
X0.5007 Y-2.4788 Z-0.0591 I0.0007 J0.0212
X0.4993 Y-2.5212 Z-0.0787 I-0.0007 J-0.0212
X0.5007 Y-2.4788 Z-0.0984 I0.0007 J0.0212
X0.4993 Y-2.5212 Z-0.1181 I-0.0007 J-0.0212
X0.5203 Y-2.4938 Z-0.13 I0.0007 J0.0212
X0.4797 Y-2.5062 I-0.0203 J-0.0062
X0.5203 Y-2.4938 I0.0203 J0.0062
X0.5071 Y-2.4867 I-0.0102 J-0.0031
G1 X0.4995 Y-2.489
X0.4966 Y-2.4899 Z-0.1297
X0.4938 Y-2.4908 Z-0.1288
X0.4912 Y-2.4916 Z-0.1273
X0.4889 Y-2.4923 Z-0.1254
X0.487 Y-2.4928 Z-0.123
X0.4856 Y-2.4933 Z-0.1203
X0.4848 Y-2.4935 Z-0.1173
X0.4845 Y-2.4936 Z-0.1143
G0 Z0.2
X0.4898 Y-1.9867
Z0.08
G1 Z0.0157 F30.
Y-1.987 Z0.0127
X0.4897 Y-1.9879 Z0.0097
Y-1.9893 Z0.007
X0.4896 Y-1.9913 Z0.0046
Y-1.9937 Z0.0027
X0.4895 Y-1.9964 Z0.0012
X0.4894 Y-1.9993 Z0.0003
X0.4893 Y-2.0024 Z0.
X0.489 Y-2.0103
G3 X0.4993 Y-2.0212 I0.0106 J-0.0003
X0.5007 Y-1.9788 Z-0.0197 I0.0007 J0.0212
X0.4993 Y-2.0212 Z-0.0394 I-0.0007 J-0.0212
X0.5007 Y-1.9788 Z-0.0591 I0.0007 J0.0212
X0.4993 Y-2.0212 Z-0.0787 I-0.0007 J-0.0212
X0.5007 Y-1.9788 Z-0.0984 I0.0007 J0.0212
X0.4993 Y-2.0212 Z-0.1181 I-0.0007 J-0.0212
X0.5203 Y-1.9938 Z-0.13 I0.0007 J0.0212
X0.4797 Y-2.0062 I-0.0203 J-0.0062
X0.5203 Y-1.9938 I0.0203 J0.0062
X0.5071 Y-1.9867 I-0.0102 J-0.0031
G1 X0.4995 Y-1.989
X0.4966 Y-1.9899 Z-0.1297
X0.4938 Y-1.9908 Z-0.1288
X0.4912 Y-1.9916 Z-0.1273
X0.4889 Y-1.9923 Z-0.1254
X0.487 Y-1.9928 Z-0.123
X0.4856 Y-1.9933 Z-0.1203
X0.4848 Y-1.9935 Z-0.1173
X0.4845 Y-1.9936 Z-0.1143
G0 Z0.2
X0.4898 Y-1.4867
Z0.08
G1 Z0.0157 F30.
Y-1.487 Z0.0127
X0.4897 Y-1.4879 Z0.0097
Y-1.4893 Z0.007
X0.4896 Y-1.4913 Z0.0046
Y-1.4937 Z0.0027
X0.4895 Y-1.4964 Z0.0012
X0.4894 Y-1.4993 Z0.0003
X0.4893 Y-1.5024 Z0.
X0.489 Y-1.5103
G3 X0.4993 Y-1.5212 I0.0106 J-0.0003
X0.5007 Y-1.4788 Z-0.0197 I0.0007 J0.0212
X0.4993 Y-1.5212 Z-0.0394 I-0.0007 J-0.0212
X0.5007 Y-1.4788 Z-0.0591 I0.0007 J0.0212
X0.4993 Y-1.5212 Z-0.0787 I-0.0007 J-0.0212
X0.5007 Y-1.4788 Z-0.0984 I0.0007 J0.0212
X0.4993 Y-1.5212 Z-0.1181 I-0.0007 J-0.0212
X0.5203 Y-1.4938 Z-0.13 I0.0007 J0.0212
X0.4797 Y-1.5062 I-0.0203 J-0.0062
X0.5203 Y-1.4938 I0.0203 J0.0062
X0.5071 Y-1.4867 I-0.0102 J-0.0031
G1 X0.4995 Y-1.489
X0.4966 Y-1.4899 Z-0.1297
X0.4938 Y-1.4908 Z-0.1288
X0.4912 Y-1.4916 Z-0.1273
X0.4889 Y-1.4923 Z-0.1254
X0.487 Y-1.4928 Z-0.123
X0.4856 Y-1.4933 Z-0.1203
X0.4848 Y-1.4935 Z-0.1173
X0.4845 Y-1.4936 Z-0.1143
G0 Z0.2
X0.4898 Y-0.9867
Z0.08
G1 Z0.0157 F30.
Y-0.987 Z0.0127
X0.4897 Y-0.9879 Z0.0097
Y-0.9893 Z0.007
X0.4896 Y-0.9913 Z0.0046
Y-0.9937 Z0.0027
X0.4895 Y-0.9964 Z0.0012
X0.4894 Y-0.9993 Z0.0003
X0.4893 Y-1.0024 Z0.
X0.489 Y-1.0103
G3 X0.4993 Y-1.0212 I0.0106 J-0.0003
X0.5007 Y-0.9788 Z-0.0197 I0.0007 J0.0212
X0.4993 Y-1.0212 Z-0.0394 I-0.0007 J-0.0212
X0.5007 Y-0.9788 Z-0.0591 I0.0007 J0.0212
X0.4993 Y-1.0212 Z-0.0787 I-0.0007 J-0.0212
X0.5007 Y-0.9788 Z-0.0984 I0.0007 J0.0212
X0.4993 Y-1.0212 Z-0.1181 I-0.0007 J-0.0212
X0.5203 Y-0.9938 Z-0.13 I0.0007 J0.0212
X0.4797 Y-1.0062 I-0.0203 J-0.0062
X0.5203 Y-0.9938 I0.0203 J0.0062
X0.5071 Y-0.9867 I-0.0102 J-0.0031
G1 X0.4995 Y-0.989
X0.4966 Y-0.9899 Z-0.1297
X0.4938 Y-0.9908 Z-0.1288
X0.4912 Y-0.9916 Z-0.1273
X0.4889 Y-0.9923 Z-0.1254
X0.487 Y-0.9928 Z-0.123
X0.4856 Y-0.9933 Z-0.1203
X0.4848 Y-0.9935 Z-0.1173
X0.4845 Y-0.9936 Z-0.1143
G0 Z0.2
X0.4898 Y-0.4867
Z0.08
G1 Z0.0157 F30.
Y-0.487 Z0.0127
X0.4897 Y-0.4879 Z0.0097
Y-0.4893 Z0.007
X0.4896 Y-0.4913 Z0.0046
Y-0.4937 Z0.0027
X0.4895 Y-0.4964 Z0.0012
X0.4894 Y-0.4993 Z0.0003
X0.4893 Y-0.5024 Z0.
X0.489 Y-0.5103
G3 X0.4993 Y-0.5212 I0.0106 J-0.0003
X0.5007 Y-0.4788 Z-0.0197 I0.0007 J0.0212
X0.4993 Y-0.5212 Z-0.0394 I-0.0007 J-0.0212
X0.5007 Y-0.4788 Z-0.0591 I0.0007 J0.0212
X0.4993 Y-0.5212 Z-0.0787 I-0.0007 J-0.0212
X0.5007 Y-0.4788 Z-0.0984 I0.0007 J0.0212
X0.4993 Y-0.5212 Z-0.1181 I-0.0007 J-0.0212
X0.5203 Y-0.4938 Z-0.13 I0.0007 J0.0212
X0.4797 Y-0.5062 I-0.0203 J-0.0062
X0.5203 Y-0.4938 I0.0203 J0.0062
X0.5071 Y-0.4867 I-0.0102 J-0.0031
G1 X0.4995 Y-0.489
X0.4966 Y-0.4899 Z-0.1297
X0.4938 Y-0.4908 Z-0.1288
X0.4912 Y-0.4916 Z-0.1273
X0.4889 Y-0.4923 Z-0.1254
X0.487 Y-0.4928 Z-0.123
X0.4856 Y-0.4933 Z-0.1203
X0.4848 Y-0.4935 Z-0.1173
X0.4845 Y-0.4936 Z-0.1143
G0 Z0.2
X2.513 Y-0.4894
Z0.08
G1 Z0.0157 F30.
X2.5127 Z0.0127
X2.5118 Z0.0097
X2.5104 Z0.007
X2.5084 Z0.0046
X2.506 Z0.0027
X2.5033 Z0.0012
X2.5004 Z0.0003
X2.4973 Z0.
X2.4894 Y-0.4893
G3 X2.4787 Y-0.4999 I0. J-0.0106
X2.5213 Y-0.5001 Z-0.0197 I0.0213 J-0.0001
X2.4787 Y-0.4999 Z-0.0394 I-0.0213 J0.0001
X2.5213 Y-0.5001 Z-0.0591 I0.0213 J-0.0001
X2.4787 Y-0.4999 Z-0.0787 I-0.0213 J0.0001
X2.5213 Y-0.5001 Z-0.0984 I0.0213 J-0.0001
X2.4787 Y-0.4999 Z-0.1181 I-0.0213 J0.0001
X2.5068 Y-0.5202 Z-0.13 I0.0213 J-0.0001
X2.4932 Y-0.4798 I-0.0068 J0.0202
X2.5068 Y-0.5202 I0.0068 J-0.0202
X2.5135 Y-0.5067 I-0.0034 J0.0101
G1 X2.511 Y-0.4992
X2.51 Y-0.4963 Z-0.1297
X2.509 Y-0.4935 Z-0.1288
X2.5082 Y-0.4909 Z-0.1273
X2.5074 Y-0.4887 Z-0.1254
X2.5068 Y-0.4868 Z-0.123
X2.5063 Y-0.4854 Z-0.1203
X2.506 Y-0.4846 Z-0.1173
X2.5059 Y-0.4843 Z-0.1143
G0 Z0.2
X4.5131 Y-0.4895
Z0.08
G1 Z0.0157 F30.
X4.5128 Z0.0127
X4.5119 Z0.0097
X4.5104 Z0.007
X4.5085 Y-0.4894 Z0.0046
X4.5061 Z0.0027
X4.5034 Z0.0012
X4.5004 Z0.0003
X4.4973 Y-0.4893 Z0.
X4.4895
G3 X4.4787 Y-0.4998 I-0.0001 J-0.0106
X4.5213 Y-0.5002 Z-0.0197 I0.0213 J-0.0002
X4.4787 Y-0.4998 Z-0.0394 I-0.0213 J0.0002
X4.5213 Y-0.5002 Z-0.0591 I0.0213 J-0.0002
X4.4787 Y-0.4998 Z-0.0787 I-0.0213 J0.0002
X4.5213 Y-0.5002 Z-0.0984 I0.0213 J-0.0002
X4.4787 Y-0.4998 Z-0.1181 I-0.0213 J0.0002
X4.5067 Y-0.5202 Z-0.13 I0.0213 J-0.0002
X4.4933 Y-0.4798 I-0.0067 J0.0202
X4.5067 Y-0.5202 I0.0067 J-0.0202
X4.5134 Y-0.5068 I-0.0033 J0.0101
G1 X4.511 Y-0.4993
X4.51 Y-0.4964 Z-0.1297
X4.5091 Y-0.4936 Z-0.1288
X4.5082 Y-0.491 Z-0.1273
X4.5075 Y-0.4887 Z-0.1254
X4.5069 Y-0.4869 Z-0.123
X4.5064 Y-0.4855 Z-0.1203
X4.5061 Y-0.4846 Z-0.1173
X4.506 Y-0.4843 Z-0.1143
G0 Z0.2
X6.5131 Y-0.4895
Z0.08
G1 Z0.0157 F30.
X6.5128 Z0.0127
X6.5119 Z0.0097
X6.5104 Z0.007
X6.5085 Y-0.4894 Z0.0046
X6.5061 Z0.0027
X6.5034 Z0.0012
X6.5004 Z0.0003
X6.4973 Y-0.4893 Z0.
X6.4895
G3 X6.4787 Y-0.4998 I-0.0001 J-0.0106
X6.5213 Y-0.5002 Z-0.0197 I0.0213 J-0.0002
X6.4787 Y-0.4998 Z-0.0394 I-0.0213 J0.0002
X6.5213 Y-0.5002 Z-0.0591 I0.0213 J-0.0002
X6.4787 Y-0.4998 Z-0.0787 I-0.0213 J0.0002
X6.5213 Y-0.5002 Z-0.0984 I0.0213 J-0.0002
X6.4787 Y-0.4998 Z-0.1181 I-0.0213 J0.0002
X6.5067 Y-0.5202 Z-0.13 I0.0213 J-0.0002
X6.4933 Y-0.4798 I-0.0067 J0.0202
X6.5067 Y-0.5202 I0.0067 J-0.0202
X6.5134 Y-0.5068 I-0.0033 J0.0101
G1 X6.511 Y-0.4993
X6.51 Y-0.4964 Z-0.1297
X6.5091 Y-0.4936 Z-0.1288
X6.5082 Y-0.491 Z-0.1273
X6.5075 Y-0.4887 Z-0.1254
X6.5069 Y-0.4869 Z-0.123
X6.5064 Y-0.4855 Z-0.1203
X6.5061 Y-0.4846 Z-0.1173
X6.506 Y-0.4843 Z-0.1143
G0 Z0.2
X4.4984 Y-2.5167
Z0.08
G1 Z0.0157 F30.
X4.4986 Y-2.5165 Z0.0127
X4.4992 Y-2.5159 Z0.0097
X4.5002 Y-2.5148 Z0.007
X4.5016 Y-2.5134 Z0.0046
X4.5033 Y-2.5117 Z0.0027
X4.5052 Y-2.5098 Z0.0012
X4.5073 Y-2.5077 Z0.0003
X4.5095 Y-2.5055 Z0.
X4.515 Y-2.5
G3 Y-2.4849 I-0.0075 J0.0075
X4.485 Y-2.5151 Z-0.0197 I-0.015 J-0.0151
X4.515 Y-2.4849 Z-0.0394 I0.015 J0.0151
X4.485 Y-2.5151 Z-0.0591 I-0.015 J-0.0151
X4.515 Y-2.4849 Z-0.0787 I0.015 J0.0151
X4.485 Y-2.5151 Z-0.0984 I-0.015 J-0.0151
X4.515 Y-2.4849 Z-0.1181 I0.015 J0.0151
X4.4809 Y-2.4906 Z-0.13 I-0.015 J-0.0151
X4.5191 Y-2.5094 I0.0191 J-0.0094
X4.4809 Y-2.4906 I-0.0191 J0.0094
X4.4858 Y-2.5049 I0.0095 J-0.0047
G1 X4.4928 Y-2.5083
X4.4956 Y-2.5097 Z-0.1297
X4.4983 Y-2.511 Z-0.1288
X4.5007 Y-2.5122 Z-0.1273
X4.5028 Y-2.5132 Z-0.1254
X4.5046 Y-2.5141 Z-0.123
X4.5059 Y-2.5147 Z-0.1203
X4.5067 Y-2.5151 Z-0.1173
X4.507 Y-2.5153 Z-0.1143
G0 Z0.2
X4.5106 Y-4.513
Z0.08
G1 Z0.0157 F30.
Y-4.5127 Z0.0127
Y-4.5118 Z0.0097
Y-4.5104 Z0.007
Y-4.5084 Z0.0046
Y-4.506 Z0.0027
Y-4.5033 Z0.0012
Y-4.5004 Z0.0003
Y-4.4973 Z0.
X4.5107 Y-4.4894
G3 X4.5001 Y-4.4787 I-0.0106 J0.
X4.4999 Y-4.5213 Z-0.0197 I-0.0001 J-0.0213
X4.5001 Y-4.4787 Z-0.0394 I0.0001 J0.0213
X4.4999 Y-4.5213 Z-0.0591 I-0.0001 J-0.0213
X4.5001 Y-4.4787 Z-0.0787 I0.0001 J0.0213
X4.4999 Y-4.5213 Z-0.0984 I-0.0001 J-0.0213
X4.5001 Y-4.4787 Z-0.1181 I0.0001 J0.0213
X4.4798 Y-4.5068 Z-0.13 I-0.0001 J-0.0213
X4.5202 Y-4.4932 I0.0202 J0.0068
X4.4798 Y-4.5068 I-0.0202 J-0.0068
X4.4933 Y-4.5135 I0.0101 J0.0034
G1 X4.5008 Y-4.511
X4.5037 Y-4.51 Z-0.1297
X4.5065 Y-4.509 Z-0.1288
X4.5091 Y-4.5082 Z-0.1273
X4.5113 Y-4.5074 Z-0.1254
X4.5132 Y-4.5068 Z-0.123
X4.5146 Y-4.5063 Z-0.1203
X4.5154 Y-4.506 Z-0.1173
X4.5157 Z-0.1143
G0 Z0.2
X4.5105 Y-6.5131
Z0.08
G1 Z0.0157 F30.
Y-6.5128 Z0.0127
Y-6.5119 Z0.0097
Y-6.5104 Z0.007
X4.5106 Y-6.5085 Z0.0046
Y-6.5061 Z0.0027
Y-6.5034 Z0.0012
Y-6.5004 Z0.0003
X4.5107 Y-6.4973 Z0.
Y-6.4895
G3 X4.5002 Y-6.4787 I-0.0106 J0.0001
X4.4998 Y-6.5213 Z-0.0197 I-0.0002 J-0.0213
X4.5002 Y-6.4787 Z-0.0394 I0.0002 J0.0213
X4.4998 Y-6.5213 Z-0.0591 I-0.0002 J-0.0213
X4.5002 Y-6.4787 Z-0.0787 I0.0002 J0.0213
X4.4998 Y-6.5213 Z-0.0984 I-0.0002 J-0.0213
X4.5002 Y-6.4787 Z-0.1181 I0.0002 J0.0213
X4.4798 Y-6.5067 Z-0.13 I-0.0002 J-0.0213
X4.5202 Y-6.4933 I0.0202 J0.0067
X4.4798 Y-6.5067 I-0.0202 J-0.0067
X4.4932 Y-6.5134 I0.0101 J0.0033
G1 X4.5007 Y-6.511
X4.5036 Y-6.51 Z-0.1297
X4.5064 Y-6.5091 Z-0.1288
X4.509 Y-6.5082 Z-0.1273
X4.5113 Y-6.5075 Z-0.1254
X4.5131 Y-6.5069 Z-0.123
X4.5145 Y-6.5064 Z-0.1203
X4.5154 Y-6.5061 Z-0.1173
X4.5157 Y-6.506 Z-0.1143
G0 Z0.6
G28 G91 Z0.
G90

(2D CONTOUR2)
M5
M9
M1
T1 M6
S20000 M3
G54
M8
G0 X7.874 Y-6.8157
G43 Z0.6 H1
Z0.2
G1 Z-0.1143 F7.
G18 G2 X7.8898 Z-0.13 I0.0157 K0. F30.
G1 X7.9055
G17 G3 X7.9213 Y-6.8 I0. J0.0157
G1 Y-0.95
G3 X7.75 Y-0.7787 I-0.1713 J0.
G1 X5.25
G3 X5.0787 Y-0.95 I0. J-0.1713
G1 Y-8.05
G3 X5.25 Y-8.2213 I0.1713 J0.
G1 X7.75
G3 X7.9213 Y-8.05 I0. J0.1713
G1 Y-6.8
G3 X7.9055 Y-6.7843 I-0.0157 J0.
G1 X7.8898
G18 G3 X7.874 Z-0.1143 I0. K0.0157
G0 Z0.2
X10.626 Y-4.4843
G1 Z-0.1143 F7.
G3 X10.6102 Z-0.13 I-0.0157 K0. F30.
G1 X10.5945
G17 G3 X10.5787 Y-4.5 I0. J-0.0157
G1 Y-8.5
G2 X10. Y-9.0787 I-0.5787 J0.
G1 X0.5
G2 X-0.0787 Y-8.5 I0. J0.5787
G1 Y-0.5
G2 X0.5 Y0.0787 I0.5787 J0.
G1 X10.
G2 X10.5787 Y-0.5 I0. J-0.5787
G1 Y-4.5
G3 X10.5945 Y-4.5157 I0.0157 J0.
G1 X10.6102
G18 G2 X10.626 Z-0.1143 I0. K0.0157
G0 Z0.2
X4.124 Y-6.6907
G1 Z-0.1143 F7.
G2 X4.1398 Z-0.13 I0.0157 K0. F30.
G1 X4.1555
G17 G3 X4.1713 Y-6.675 I0. J0.0157
G1 Y-0.95
G3 X4. Y-0.7787 I-0.1713 J0.
G1 X1.25
G3 X1.0787 Y-0.95 I0. J-0.1713
G1 Y-8.05
G3 X1.25 Y-8.2213 I0.1713 J0.
G1 X4.
G3 X4.1713 Y-8.05 I0. J0.1713
G1 Y-6.675
G3 X4.1555 Y-6.6593 I-0.0157 J0.
G1 X4.1398
G18 G3 X4.124 Z-0.1143 I0. K0.0157
G0 Z0.6
G17

M9
G28 G91 Z0.
G90
G28 G91 X0. Y0.
G90
M30
